/* XPM */
static char * doom_est[] = {
"64 64 256 2",
"  	c #000000",
". 	c #0000FF",
"+ 	c #00FF00",
"@ 	c #FF0000",
"# 	c #00FFFF",
"$ 	c #FFFF00",
"% 	c #FF00FF",
"& 	c #FFFFFF",
"* 	c #7B7B7B",
"= 	c #7B7B7B",
"- 	c #7B7B7B",
"; 	c #7B7B7B",
"> 	c #7B7B7B",
", 	c #7B7B7B",
"' 	c #7B7B7B",
") 	c #7B7B7B",
"! 	c #7B7B7B",
"~ 	c #7B7B7B",
"{ 	c #7B7B7B",
"] 	c #7B7B7B",
"^ 	c #7B7B7B",
"/ 	c #7B7B7B",
"( 	c #7B7B7B",
"_ 	c #7B7B7B",
": 	c #7B7B7B",
"< 	c #7B7B7B",
"[ 	c #7B7B7B",
"} 	c #7B7B7B",
"| 	c #7B7B7B",
"1 	c #7B7B7B",
"2 	c #7B7B7B",
"3 	c #7B7B7B",
"4 	c #7B7B7B",
"5 	c #7B7B7B",
"6 	c #7B7B7B",
"7 	c #7B7B7B",
"8 	c #7B7B7B",
"9 	c #7B7B7B",
"0 	c #7B7B7B",
"a 	c #7B7B7B",
"b 	c #7B7B7B",
"c 	c #7B7B7B",
"d 	c #7B7B7B",
"e 	c #7B7B7B",
"f 	c #7B7B7B",
"g 	c #7B7B7B",
"h 	c #7B7B7B",
"i 	c #7B7B7B",
"j 	c #7B7B7B",
"k 	c #7B7B7B",
"l 	c #7B7B7B",
"m 	c #7B7B7B",
"n 	c #7B7B7B",
"o 	c #7B7B7B",
"p 	c #7B7B7B",
"q 	c #7B7B7B",
"r 	c #7B7B7B",
"s 	c #7B7B7B",
"t 	c #7B7B7B",
"u 	c #7B7B7B",
"v 	c #7B7B7B",
"w 	c #7B7B7B",
"x 	c #7B7B7B",
"y 	c #7B7B7B",
"z 	c #7B7B7B",
"A 	c #7B7B7B",
"B 	c #7B7B7B",
"C 	c #7B7B7B",
"D 	c #7B7B7B",
"E 	c #7B7B7B",
"F 	c #7B7B7B",
"G 	c #7B7B7B",
"H 	c #7B7B7B",
"I 	c #7B7B7B",
"J 	c #7B7B7B",
"K 	c #7B7B7B",
"L 	c #7B7B7B",
"M 	c #7B7B7B",
"N 	c #7B7B7B",
"O 	c #7B7B7B",
"P 	c #7B7B7B",
"Q 	c #7B7B7B",
"R 	c #7B7B7B",
"S 	c #7B7B7B",
"T 	c #7B7B7B",
"U 	c #7B7B7B",
"V 	c #7B7B7B",
"W 	c #7B7B7B",
"X 	c #7B7B7B",
"Y 	c #7B7B7B",
"Z 	c #7B7B7B",
"` 	c #7B7B7B",
" .	c #7B7B7B",
"..	c #7B7B7B",
"+.	c #7B7B7B",
"@.	c #7B7B7B",
"#.	c #7B7B7B",
"$.	c #7B7B7B",
"%.	c #7B7B7B",
"&.	c #7B7B7B",
"*.	c #7B7B7B",
"=.	c #7B7B7B",
"-.	c #7B7B7B",
";.	c #7B7B7B",
">.	c #7B7B7B",
",.	c #7B7B7B",
"'.	c #7B7B7B",
").	c #7B7B7B",
"!.	c #7B7B7B",
"~.	c #7B7B7B",
"{.	c #7B7B7B",
"].	c #7B7B7B",
"^.	c #7B7B7B",
"/.	c #7B7B7B",
"(.	c #7B7B7B",
"_.	c #7B7B7B",
":.	c #7B7B7B",
"<.	c #7B7B7B",
"[.	c #7B7B7B",
"}.	c #7B7B7B",
"|.	c #7B7B7B",
"1.	c #7B7B7B",
"2.	c #7B7B7B",
"3.	c #7B7B7B",
"4.	c #7B7B7B",
"5.	c #7B7B7B",
"6.	c #7B7B7B",
"7.	c #7B7B7B",
"8.	c #7B7B7B",
"9.	c #7B7B7B",
"0.	c #7B7B7B",
"a.	c #7B7B7B",
"b.	c #7B7B7B",
"c.	c #7B7B7B",
"d.	c #7B7B7B",
"e.	c #7B7B7B",
"f.	c #7B7B7B",
"g.	c #7B7B7B",
"h.	c #7B7B7B",
"i.	c #7B7B7B",
"j.	c #7B7B7B",
"k.	c #7B7B7B",
"l.	c #7B7B7B",
"m.	c #7B7B7B",
"n.	c #7B7B7B",
"o.	c #7B7B7B",
"p.	c #7B7B7B",
"q.	c #7B7B7B",
"r.	c #7B7B7B",
"s.	c #7B7B7B",
"t.	c #7B7B7B",
"u.	c #7B7B7B",
"v.	c #7B7B7B",
"w.	c #7B7B7B",
"x.	c #7B7B7B",
"y.	c #7B7B7B",
"z.	c #7B7B7B",
"A.	c #7B7B7B",
"B.	c #7B7B7B",
"C.	c #7B7B7B",
"D.	c #7B7B7B",
"E.	c #7B7B7B",
"F.	c #7B7B7B",
"G.	c #7B7B7B",
"H.	c #7B7B7B",
"I.	c #7B7B7B",
"J.	c #7B7B7B",
"K.	c #7B7B7B",
"L.	c #7B7B7B",
"M.	c #7B7B7B",
"N.	c #7B7B7B",
"O.	c #7B7B7B",
"P.	c #7B7B7B",
"Q.	c #7B7B7B",
"R.	c #7B7B7B",
"S.	c #7B7B7B",
"T.	c #7B7B7B",
"U.	c #7B7B7B",
"V.	c #7B7B7B",
"W.	c #7B7B7B",
"X.	c #7B7B7B",
"Y.	c #7B7B7B",
"Z.	c #7B7B7B",
"`.	c #7B7B7B",
" +	c #7B7B7B",
".+	c #7B7B7B",
"++	c #7B7B7B",
"@+	c #7B7B7B",
"#+	c #7B7B7B",
"$+	c #7B7B7B",
"%+	c #7B7B7B",
"&+	c #7B7B7B",
"*+	c #7B7B7B",
"=+	c #7B7B7B",
"-+	c #7B7B7B",
";+	c #7B7B7B",
">+	c #7B7B7B",
",+	c #7B7B7B",
"'+	c #7B7B7B",
")+	c #7B7B7B",
"!+	c #7B7B7B",
"~+	c #7B7B7B",
"{+	c #7B7B7B",
"]+	c #7B7B7B",
"^+	c #7B7B7B",
"/+	c #7B7B7B",
"(+	c #7B7B7B",
"_+	c #7B7B7B",
":+	c #7B7B7B",
"<+	c #7B7B7B",
"[+	c #7B7B7B",
"}+	c #7B7B7B",
"|+	c #7B7B7B",
"1+	c #7B7B7B",
"2+	c #7B7B7B",
"3+	c #7B7B7B",
"4+	c #7B7B7B",
"5+	c #7B7B7B",
"6+	c #7B7B7B",
"7+	c #7B7B7B",
"8+	c #7B7B7B",
"9+	c #7B7B7B",
"0+	c #7B7B7B",
"a+	c #7B7B7B",
"b+	c #7B7B7B",
"c+	c #7B7B7B",
"d+	c #7B7B7B",
"e+	c #7B7B7B",
"f+	c #7B7B7B",
"g+	c #7B7B7B",
"h+	c #7B7B7B",
"i+	c #7B7B7B",
"j+	c #7B7B7B",
"k+	c #7B7B7B",
"l+	c #7B7B7B",
"m+	c #7B7B7B",
"n+	c #7B7B7B",
"o+	c #4A3118",
"p+	c #523929",
"q+	c #412918",
"r+	c #523918",
"s+	c #4A3920",
"t+	c #392910",
"u+	c #5A4129",
"v+	c #413120",
"w+	c #292008",
"x+	c #5A4A31",
"y+	c #6A4120",
"z+	c #413118",
"A+	c #734A29",
"B+	c #5A4120",
"C+	c #392918",
"D+	c #6A5241",
"E+	c #202908",
"F+	c #625231",
"G+	c #293118",
"t+t+t+t+t+t+q+t+w+q+s+v+s+s+s+s+v+B+s+B+B+p+B+v+t+t+t+t+t+t+q+q+t+q+q+t+t+t+t+w+t+s+u+u+p+s+u+v+s+s+u+u+u+s+q+t+w+w+w+t+t+t+q+v+",
"u+u+v+B+s+v+v+G+t+q+q+q+q+q+q+v+v+B+v+v+v+v+v+q+t+t+z+s+s+u+u+u+B+B+B+p+B+s+t+t+t+v+v+v+v+v+v+v+v+v+p+v+v+q+t+t+w+w+t+z+s+s+u+u+",
"u+x+u+B+A+A+s+q+t+t+v+t+t+q+t+t+t+t+q+q+t+q+q+q+q+t+z+A+s+s+s+s+s+p+u+B+F+u+t+t+t+z+t+q+q+q+q+q+q+q+q+q+q+t+t+t+t+t+z+s+u+p+u+p+",
"p+v+v+s+p+A+s+t+z+u+A+A+A+A+B+s+s+s+v+z+s+s+v+v+q+t+z+B+z+z+v+s+s+s+B+v+s+F+z+G+z+p+p+s+s+z+q+s+p+p+s+p+s+v+z+z+z+z+t+z+s+z+u+s+",
"v+v+z+p+v+s+z+t+v+A+u+u+v+s+s+u+u+s+z+s+s+s+u+s+q+t+z+B+s+z+z+s+s+v+A+z+z+A+z+z+v+p+x+x+u+p+p+x+u+u+p+p+s+u+A+B+t+z+t+z+s+s+s+p+",
"s+z+v+s+z+z+z+t+s+B+B+s+s+v+u+s+p+u+s+v+s+s+p+s+q+q+s+s+s+z+s+s+s+v+z+s+z+u+q+G+z+u+u+u+s+u+u+u+u+u+p+s+u+u+s+A+p+v+t+v+z+s+s+v+",
"v+s+z+v+s+z+z+t+s+s+s+s+v+s+s+u+u+u+p+p+s+s+p+p+q+z+u+z+s+s+s+s+s+z+s+s+v+z+t+z+s+p+s+p+A+s+s+u+s+A+u+u+p+p+s+s+s+t+t+t+z+z+z+s+",
"z+s+s+z+z+v+q+q+t+s+s+u+s+p+s+u+u+p+x+x+F+u+B+s+t+z+v+s+v+v+z+v+z+v+z+s+v+s+q+G+s+p+u+s+s+v+p+u+x+u+u+u+s+v+s+z+z+z+w+w+t+t+z+t+",
"t+t+q+z+t+t+t+t+t+s+s+u+s+p+p+p+x+x+F+u+u+u+s+v+w+w+t+q+v+v+s+p+s+v+s+z+v+q+z+s+s+s+u+s+v+u+p+p+p+p+u+s+z+t+q+t+t+t+w+t+z+t+w+w+",
"w+v+v+z+v+z+z+z+t+t+v+s+s+s+s+p+u+u+u+p+u+p+s+q+t+t+t+t+q+q+v+v+s+z+z+t+t+t+z+s+q+s+s+s+s+p+s+s+s+v+z+z+z+q+t+z+v+z+z+z+z+z+t+t+",
"w+s+x+D+A+A+B+z+z+w+t+q+v+v+q+v+v+v+s+p+v+v+q+q+q+z+z+z+v+v+t+t+t+t+t+w+w+t+z+z+q+t+t+q+z+v+v+q+q+q+q+t+t+t+q+p+F+F+A+F+A+F+B+t+",
"w+A+u+s+u+s+s+s+s+t+q+p+A+A+u+v+s+v+v+q+z+q+t+q+v+A+u+s+s+B+s+z+t+t+z+w+w+t+t+t+t+t+t+t+t+t+v+z+q+q+t+t+w+t+v+F+A+u+s+s+B+B+F+z+",
"w+A+p+u+u+s+s+u+s+t+v+F+F+u+v+p+u+A+A+u+v+q+t+z+u+u+u+v+s+B+s+z+t+z+t+z+z+z+v+s+v+z+z+z+s+F+F+F+F+u+s+v+z+t+s+A+s+v+s+z+B+B+A+v+",
"w+u+p+s+p+p+s+v+v+q+v+F+u+s+u+u+p+p+u+p+s+v+t+z+A+s+u+s+B+s+B+z+z+t+z+s+s+s+u+F+F+v+t+s+A+p+u+u+s+u+F+s+z+t+z+B+s+s+s+B+s+s+A+t+",
"w+u+s+p+p+s+v+v+v+q+p+x+u+s+s+u+B+B+s+p+s+v+q+B+v+s+s+B+B+B+s+z+z+t+z+s+B+s+p+u+A+z+t+s+B+s+v+B+z+B+s+F+z+t+z+B+s+s+B+s+B+s+B+t+",
"w+B+B+u+v+v+s+s+z+q+v+s+p+p+p+u+s+s+s+u+s+q+q+u+B+s+s+B+B+s+p+s+q+t+z+v+B+B+s+B+A+t+t+s+u+p+s+s+s+v+s+F+z+t+z+q+B+s+B+B+s+s+B+t+",
"w+B+B+v+v+s+s+s+v+q+s+s+s+p+u+p+v+p+p+s+s+t+z+s+u+B+s+s+B+s+p+s+z+t+z+s+s+B+s+u+z+t+t+s+u+u+p+v+p+p+s+A+z+t+z+v+s+B+s+s+B+B+u+t+",
"w+s+s+s+z+s+s+s+v+q+s+v+s+s+B+A+s+s+u+z+z+t+z+z+q+s+s+v+p+u+s+z+t+s+v+v+B+B+s+v+u+z+t+v+u+u+z+s+s+s+B+A+z+t+z+s+s+s+A+s+s+s+s+t+",
"w+s+s+s+v+u+s+s+v+t+z+s+s+B+B+u+s+v+v+B+z+t+s+A+A+B+v+v+v+v+s+z+t+z+z+s+z+B+s+s+B+z+t+s+B+A+s+z+s+s+A+A+z+t+z+s+B+B+B+s+s+s+s+t+",
"w+p+p+s+s+s+v+s+v+t+z+v+z+u+v+B+s+s+B+s+B+t+s+v+s+s+s+s+p+p+u+s+t+t+z+v+A+B+B+s+s+t+t+v+B+A+B+A+s+z+B+A+s+t+s+s+B+B+B+s+B+s+u+q+",
"w+u+p+s+s+s+s+v+v+t+w+t+q+z+z+s+B+p+s+s+z+t+s+s+B+v+s+u+A+s+p+z+t+t+z+s+s+B+s+v+p+t+w+s+B+s+B+s+s+u+B+B+z+t+s+s+s+s+B+s+s+B+s+t+",
"w+u+x+p+u+x+p+s+v+t+w+t+q+q+q+q+q+z+s+z+q+z+s+s+z+s+s+u+s+p+u+s+t+z+z+s+B+s+s+v+z+t+t+s+s+s+B+s+s+s+B+s+z+t+z+s+s+u+z+s+v+s+x+q+",
"w+v+p+s+s+s+s+t+t+t+v+B+F+A+s+v+q+q+q+q+q+q+z+s+s+s+s+s+p+p+s+s+t+w+t+t+z+z+q+t+q+t+t+z+z+z+z+z+z+z+z+v+z+t+t+q+q+s+s+z+z+z+z+q+",
"z+s+v+q+q+q+q+t+t+z+v+F+u+B+A+F+B+p+v+p+s+v+v+v+t+t+t+q+z+q+q+q+t+t+t+t+t+q+q+t+t+t+t+v+v+v+v+v+v+z+v+z+t+t+q+q+q+q+t+v+t+q+v+q+",
"p+u+s+s+p+p+s+s+z+q+v+s+B+s+s+s+v+s+A+F+u+u+B+B+z+t+z+B+s+s+p+s+B+B+s+s+s+u+u+u+v+z+t+t+u+u+A+D+F+A+s+B+u+B+u+p+q+z+p+u+u+p+u+p+",
"u+p+p+s+p+p+u+A+B+q+v+z+s+s+s+p+p+p+u+z+v+p+v+s+t+t+B+A+v+B+B+s+B+s+s+s+v+v+s+A+s+q+q+B+F+A+s+p+s+s+s+s+v+s+v+s+q+s+x+D+F+u+p+p+",
"x+p+p+s+s+p+u+v+A+q+v+B+z+q+s+s+p+u+u+u+p+s+s+u+t+t+A+B+B+B+B+B+B+s+v+v+v+p+u+p+u+q+v+A+A+s+s+v+B+s+s+B+s+v+s+s+z+s+F+A+p+u+x+u+",
"u+p+u+s+s+p+s+s+s+q+z+u+v+p+s+u+x+u+u+u+p+p+p+s+q+t+B+s+B+B+B+s+s+s+s+s+s+p+s+s+s+q+v+F+s+v+z+z+v+s+s+s+B+s+v+z+z+s+u+u+u+p+u+p+",
"s+s+p+s+v+s+B+s+s+q+v+s+p+s+x+u+s+p+p+s+u+p+p+s+t+t+B+s+s+s+s+B+v+s+s+s+v+p+u+p+p+q+s+u+s+s+v+z+s+v+z+s+u+z+s+A+q+z+u+s+s+s+p+u+",
"s+z+s+s+s+s+s+s+u+q+v+s+p+p+p+s+s+s+p+p+u+u+u+u+q+q+s+s+B+s+s+v+v+z+p+s+p+F+u+x+p+q+s+x+p+s+p+v+v+s+s+s+v+A+u+u+t+t+s+s+s+s+s+s+",
"v+z+s+s+s+s+u+B+s+q+v+p+p+v+v+s+s+u+s+p+u+p+u+u+z+z+z+s+v+s+s+p+v+z+v+p+s+u+u+x+s+q+z+u+p+s+v+v+v+s+s+s+s+s+u+B+t+z+v+s+v+p+s+s+",
"t+t+q+z+z+q+q+t+q+t+z+u+u+p+p+s+s+s+p+u+x+p+s+s+z+q+t+z+q+q+z+z+z+z+q+z+z+z+z+q+z+z+s+p+p+s+p+s+s+v+v+s+B+s+s+s+t+z+z+z+z+q+z+z+",
"t+t+t+t+q+t+w+w+w+t+q+x+u+s+u+p+s+p+p+p+p+B+u+s+t+w+w+t+t+q+z+z+z+z+q+q+q+q+t+t+t+p+u+s+s+p+v+p+s+s+s+s+s+z+q+t+w+t+t+q+q+t+q+q+",
"B+B+B+B+s+z+w+w+w+t+E+q+q+q+s+s+q+q+z+q+q+q+s+t+w+w+z+s+s+u+u+x+x+u+u+p+u+p+z+t+t+s+p+v+v+v+p+s+p+p+v+s+z+z+t+q+w+z+z+s+v+B+B+B+",
"p+p+s+u+A+z+t+w+w+t+q+t+t+q+t+q+q+t+t+t+t+t+t+w+w+z+z+A+A+u+u+u+u+p+p+p+x+u+s+t+t+t+q+q+t+t+q+q+z+v+z+t+t+t+t+t+t+q+u+A+A+u+u+u+",
"u+p+s+s+u+s+G+w+z+z+s+s+B+s+p+v+s+z+z+z+z+v+s+z+t+t+z+A+p+u+p+p+p+s+p+p+p+F+z+q+s+z+z+s+z+z+z+v+p+p+A+A+A+A+B+s+z+z+A+B+p+p+u+p+",
"p+p+s+s+u+z+q+v+s+A+F+s+B+s+u+s+B+u+s+u+s+B+B+s+t+q+s+p+p+u+p+p+s+s+p+s+s+D+z+t+p+p+p+p+B+s+p+u+u+p+v+v+s+B+A+F+v+q+u+z+v+x+p+p+",
"p+p+s+z+s+z+q+v+A+F+u+u+B+s+s+s+B+s+B+B+B+B+s+v+q+v+s+u+s+s+s+s+s+s+s+s+s+u+s+q+p+p+p+p+v+s+v+p+s+B+v+v+s+s+s+A+z+z+p+z+z+p+p+s+",
"s+p+s+z+z+G+q+v+B+B+s+s+s+B+s+s+s+s+s+s+B+B+B+s+t+z+s+u+p+s+s+v+v+z+z+z+p+s+p+q+s+p+s+u+s+s+v+s+B+B+B+B+s+s+s+u+z+G+s+z+z+s+p+s+",
"z+z+z+z+s+s+t+q+z+s+s+s+s+v+u+s+B+s+s+s+s+B+s+s+t+z+s+u+s+s+v+v+v+z+s+s+q+s+p+z+s+p+u+u+u+u+v+s+B+s+s+s+s+B+B+s+t+z+v+z+v+p+s+s+",
"z+t+t+t+q+q+t+t+q+t+t+v+s+v+s+s+s+B+A+s+s+s+s+v+q+G+s+u+s+s+z+q+z+z+s+p+s+z+s+q+s+p+u+p+v+B+A+u+B+B+s+B+s+B+s+s+t+z+z+t+q+z+z+z+",
"w+v+v+z+s+z+z+z+z+t+w+t+z+t+q+q+v+v+v+v+s+s+z+q+s+q+v+v+v+z+z+q+q+z+v+q+q+q+t+t+s+s+u+s+s+p+s+A+v+s+z+s+s+s+z+t+t+t+t+t+z+v+q+q+",
"w+v+F+A+A+A+A+A+u+z+t+w+t+t+t+t+t+t+t+t+q+t+t+w+w+w+w+t+t+t+t+w+t+q+t+v+v+s+v+v+q+z+s+s+s+s+s+v+t+t+t+z+t+t+w+t+z+B+B+A+A+A+u+q+",
"q+v+A+B+B+B+v+B+A+u+z+t+q+v+z+t+t+t+t+t+t+w+t+z+t+z+q+t+t+q+G+w+q+p+p+u+p+s+F+p+z+t+t+t+q+v+v+z+s+s+A+A+B+z+z+t+B+s+v+s+s+s+A+t+",
"G+s+B+B+B+u+v+s+s+A+z+t+v+p+u+A+A+A+A+B+s+t+t+z+s+p+s+v+z+z+z+t+z+p+p+u+v+u+s+A+z+q+t+z+B+A+A+B+B+B+B+B+F+s+t+t+s+u+u+p+u+s+B+t+",
"t+s+B+s+s+s+s+B+B+A+z+t+s+x+F+u+p+p+s+B+A+z+q+s+F+u+p+p+B+s+z+t+v+p+u+p+u+s+B+s+v+q+t+v+s+s+B+s+s+B+s+B+B+F+z+t+s+s+p+u+p+p+s+t+",
"q+v+s+A+u+s+s+s+s+z+t+t+s+A+s+p+u+p+p+s+u+z+t+v+u+u+p+p+B+s+q+t+s+s+u+p+u+s+B+B+A+z+t+s+s+s+B+B+B+s+B+B+p+A+z+q+p+p+p+x+u+p+p+q+",
"G+s+u+s+u+p+v+s+A+t+t+q+s+B+B+s+u+s+z+u+B+t+t+s+s+s+s+s+s+v+v+t+z+s+u+p+s+s+u+s+s+s+t+s+s+B+B+s+B+B+B+B+s+u+v+v+p+s+s+p+p+x+u+t+",
"G+s+u+p+p+p+u+v+v+B+t+t+s+B+B+s+v+s+B+B+s+z+q+z+s+s+B+B+s+v+z+t+v+p+s+s+s+B+u+s+u+s+t+z+s+s+s+s+B+z+s+s+s+u+t+s+p+s+s+p+s+u+u+q+",
"z+B+B+u+s+p+p+v+s+s+v+t+B+B+B+v+u+z+z+s+s+z+t+z+A+B+s+s+u+v+t+t+z+v+v+B+s+u+s+z+q+z+t+z+t+B+s+B+B+B+B+v+u+p+s+s+p+u+s+s+s+s+v+t+",
"q+u+u+s+s+x+u+p+u+z+q+t+s+B+B+B+s+s+s+B+s+z+t+v+v+B+B+s+s+z+t+t+z+v+s+s+s+s+s+B+A+u+t+t+s+B+s+B+B+s+s+u+s+p+t+s+u+u+s+u+p+p+s+t+",
"v+p+p+p+p+p+p+p+p+p+v+t+s+B+s+s+s+B+B+B+s+z+t+s+s+u+s+A+B+s+t+w+t+s+A+B+B+s+s+v+s+s+q+t+s+B+s+B+B+s+v+s+s+s+t+p+u+u+u+p+p+p+x+q+",
"G+p+p+p+p+x+u+u+u+s+z+q+s+s+s+B+s+B+B+v+s+z+t+z+s+v+s+s+z+z+t+t+z+s+B+B+A+s+s+s+s+B+z+t+s+B+s+s+B+s+v+z+t+z+t+s+s+s+p+v+s+F+x+t+",
"q+v+u+s+s+s+D+u+u+s+t+z+s+s+s+s+B+s+v+v+s+z+t+z+s+s+B+s+s+s+z+t+z+s+s+s+s+B+s+s+s+s+z+w+t+s+z+z+q+q+v+v+t+t+q+p+u+s+s+v+v+u+u+q+",
"z+q+q+q+q+q+t+v+q+t+w+z+q+z+z+z+z+z+z+z+z+z+z+z+t+t+t+z+z+t+w+t+z+z+s+s+B+s+B+B+v+z+t+w+q+v+t+q+v+p+x+D+A+s+t+z+s+s+s+z+z+s+p+t+",
"t+v+z+z+G+q+s+s+q+v+w+t+t+z+v+v+v+z+q+q+z+z+q+t+w+w+t+t+t+t+t+t+z+t+t+t+t+t+t+z+t+t+t+t+t+v+s+s+A+F+x+x+F+p+z+t+t+q+t+t+q+q+q+t+",
"u+p+s+v+s+u+u+u+s+q+t+q+B+B+F+F+F+A+s+u+u+u+u+s+z+t+s+s+B+s+B+B+B+B+B+B+s+B+t+t+z+s+u+B+B+A+B+s+v+p+p+s+p+p+v+t+q+p+s+s+s+z+s+s+",
"u+p+s+s+v+v+s+A+p+q+q+B+F+A+B+s+s+v+s+v+v+p+s+s+z+q+u+F+A+s+B+s+s+s+s+s+B+A+z+t+v+u+s+s+B+s+s+v+u+v+s+s+p+s+q+z+A+u+p+u+u+s+p+u+",
"A+B+p+s+v+s+u+s+u+q+v+F+A+s+v+s+s+v+s+s+p+s+u+B+z+t+F+A+p+s+B+s+s+s+s+s+s+A+z+t+z+p+v+s+v+s+s+s+v+u+p+p+A+s+t+s+s+p+s+u+v+v+p+u+",
"u+u+p+v+v+s+v+s+p+q+v+F+s+v+z+z+v+s+p+u+u+u+p+s+z+s+B+u+u+p+s+v+s+B+s+s+s+u+v+t+v+u+u+s+s+v+s+s+v+s+s+u+p+s+t+B+v+s+p+p+v+s+s+p+",
"p+p+p+s+v+s+s+s+p+q+v+B+s+v+s+z+v+v+s+p+u+s+p+F+z+t+B+s+v+s+s+u+v+B+s+s+v+p+z+q+s+u+u+p+p+B+v+v+s+u+s+s+p+s+t+B+v+p+p+s+B+u+s+p+",
"s+v+s+s+s+A+B+B+v+t+z+B+s+B+B+s+v+s+p+p+v+F+u+u+v+q+s+s+p+s+s+v+B+s+s+s+p+s+s+t+s+x+u+u+p+s+s+s+s+v+v+u+p+z+t+s+u+s+A+s+B+s+v+z+",
"s+z+v+s+s+B+s+u+z+t+v+s+s+s+s+v+v+p+v+v+s+s+u+u+q+z+z+s+s+p+s+s+v+s+v+v+s+s+s+q+s+x+u+u+p+p+v+v+s+v+s+v+s+z+t+z+B+s+s+v+s+s+s+v+",
"t+t+t+q+t+q+t+t+t+t+v+s+s+s+s+v+v+v+v+s+B+s+s+v+z+q+t+v+z+t+z+z+t+q+t+q+q+z+q+q+s+u+u+u+s+v+s+s+s+v+v+u+s+z+t+q+q+q+q+q+q+t+t+t+"};
