/* XPM */
static char *floor[] = {
/* columns rows colors chars-per-pixel */
"64 64 256 2 ",
"   c black",
".  c blue",
"X  c green",
"o  c red",
"O  c cyan",
"+  c yellow",
"@  c magenta",
"#  c white",
"$  c #7B7B7B",
"%  c #7B7B7B",
"&  c #7B7B7B",
"*  c #7B7B7B",
"=  c #7B7B7B",
"-  c #7B7B7B",
";  c #7B7B7B",
":  c #7B7B7B",
">  c #7B7B7B",
",  c #7B7B7B",
"<  c #7B7B7B",
"1  c #7B7B7B",
"2  c #7B7B7B",
"3  c #7B7B7B",
"4  c #7B7B7B",
"5  c #7B7B7B",
"6  c #7B7B7B",
"7  c #7B7B7B",
"8  c #7B7B7B",
"9  c #7B7B7B",
"0  c #7B7B7B",
"q  c #7B7B7B",
"w  c #7B7B7B",
"e  c #7B7B7B",
"r  c #7B7B7B",
"t  c #7B7B7B",
"y  c #7B7B7B",
"u  c #7B7B7B",
"i  c #7B7B7B",
"p  c #7B7B7B",
"a  c #7B7B7B",
"s  c #7B7B7B",
"d  c #7B7B7B",
"f  c #7B7B7B",
"g  c #7B7B7B",
"h  c #7B7B7B",
"j  c #7B7B7B",
"k  c #7B7B7B",
"l  c #7B7B7B",
"z  c #7B7B7B",
"x  c #7B7B7B",
"c  c #7B7B7B",
"v  c #7B7B7B",
"b  c #7B7B7B",
"n  c #7B7B7B",
"m  c #7B7B7B",
"M  c #7B7B7B",
"N  c #7B7B7B",
"B  c #7B7B7B",
"V  c #7B7B7B",
"C  c #7B7B7B",
"Z  c #7B7B7B",
"A  c #7B7B7B",
"S  c #7B7B7B",
"D  c #7B7B7B",
"F  c #7B7B7B",
"G  c #7B7B7B",
"H  c #7B7B7B",
"J  c #7B7B7B",
"K  c #7B7B7B",
"L  c #7B7B7B",
"P  c #7B7B7B",
"I  c #7B7B7B",
"U  c #7B7B7B",
"Y  c #7B7B7B",
"T  c #7B7B7B",
"R  c #7B7B7B",
"E  c #7B7B7B",
"W  c #7B7B7B",
"Q  c #7B7B7B",
"!  c #7B7B7B",
"~  c #7B7B7B",
"^  c #7B7B7B",
"/  c #7B7B7B",
"(  c #7B7B7B",
")  c #7B7B7B",
"_  c #7B7B7B",
"`  c #7B7B7B",
"'  c #7B7B7B",
"]  c #7B7B7B",
"[  c #7B7B7B",
"{  c #7B7B7B",
"}  c #7B7B7B",
"|  c #7B7B7B",
" . c #7B7B7B",
".. c #7B7B7B",
"X. c #7B7B7B",
"o. c #7B7B7B",
"O. c #7B7B7B",
"+. c #7B7B7B",
"@. c #7B7B7B",
"#. c #7B7B7B",
"$. c #7B7B7B",
"%. c #7B7B7B",
"&. c #7B7B7B",
"*. c #7B7B7B",
"=. c #7B7B7B",
"-. c #7B7B7B",
";. c #7B7B7B",
":. c #7B7B7B",
">. c #7B7B7B",
",. c #7B7B7B",
"<. c #7B7B7B",
"1. c #7B7B7B",
"2. c #7B7B7B",
"3. c #7B7B7B",
"4. c #7B7B7B",
"5. c #7B7B7B",
"6. c #7B7B7B",
"7. c #7B7B7B",
"8. c #7B7B7B",
"9. c #7B7B7B",
"0. c #7B7B7B",
"q. c #7B7B7B",
"w. c #7B7B7B",
"e. c #7B7B7B",
"r. c #7B7B7B",
"t. c #7B7B7B",
"y. c #7B7B7B",
"u. c #7B7B7B",
"i. c #7B7B7B",
"p. c #7B7B7B",
"a. c #7B7B7B",
"s. c #7B7B7B",
"d. c #7B7B7B",
"f. c #7B7B7B",
"g. c #7B7B7B",
"h. c #7B7B7B",
"j. c #7B7B7B",
"k. c #7B7B7B",
"l. c #7B7B7B",
"z. c #7B7B7B",
"x. c #7B7B7B",
"c. c #7B7B7B",
"v. c #7B7B7B",
"b. c #7B7B7B",
"n. c #7B7B7B",
"m. c #7B7B7B",
"M. c #7B7B7B",
"N. c #7B7B7B",
"B. c #7B7B7B",
"V. c #7B7B7B",
"C. c #7B7B7B",
"Z. c #7B7B7B",
"A. c #7B7B7B",
"S. c #7B7B7B",
"D. c #7B7B7B",
"F. c #7B7B7B",
"G. c #7B7B7B",
"H. c #7B7B7B",
"J. c #7B7B7B",
"K. c #7B7B7B",
"L. c #7B7B7B",
"P. c #7B7B7B",
"I. c #7B7B7B",
"U. c #7B7B7B",
"Y. c #7B7B7B",
"T. c #7B7B7B",
"R. c #7B7B7B",
"E. c #7B7B7B",
"W. c #7B7B7B",
"Q. c #7B7B7B",
"!. c #7B7B7B",
"~. c #7B7B7B",
"^. c #7B7B7B",
"/. c #7B7B7B",
"(. c #7B7B7B",
"). c #7B7B7B",
"_. c #7B7B7B",
"`. c #7B7B7B",
"'. c #7B7B7B",
"]. c #7B7B7B",
"[. c #7B7B7B",
"{. c #7B7B7B",
"}. c #7B7B7B",
"|. c #7B7B7B",
" X c #7B7B7B",
".X c #7B7B7B",
"XX c #7B7B7B",
"oX c #7B7B7B",
"OX c #7B7B7B",
"+X c #7B7B7B",
"@X c #7B7B7B",
"#X c #7B7B7B",
"$X c #7B7B7B",
"%X c #7B7B7B",
"&X c #7B7B7B",
"*X c #7B7B7B",
"=X c #7B7B7B",
"-X c #7B7B7B",
";X c #7B7B7B",
":X c #7B7B7B",
">X c #7B7B7B",
",X c #7B7B7B",
"<X c #7B7B7B",
"1X c #7B7B7B",
"2X c #7B7B7B",
"3X c #7B7B7B",
"4X c #7B7B7B",
"5X c #7B7B7B",
"6X c #7B7B7B",
"7X c #7B7B7B",
"8X c #7B7B7B",
"9X c #7B7B7B",
"0X c #7B7B7B",
"qX c #7B7B7B",
"wX c #7B7B7B",
"eX c #7B7B7B",
"rX c #7B7B7B",
"tX c #7B7B7B",
"yX c #7B7B7B",
"uX c #7B7B7B",
"iX c #625239",
"pX c #8B0000",
"aX c #6A4120",
"sX c #625231",
"dX c #181818",
"fX c #4A0000",
"gX c #202020",
"hX c #5A0000",
"jX c #293118",
"kX c #313920",
"lX c #312010",
"zX c #832000",
"xX c #730000",
"cX c #4A3929",
"vX c #620000",
"bX c #292008",
"nX c #181008",
"mX c gray16",
"MX c #392910",
"NX c #313131",
"BX c #4A3920",
"VX c #393939",
"CX c #524131",
"ZX c #412918",
"AX c #523929",
"SX c #202908",
"DX c #392918",
"FX c #7B0000",
"GX c #525239",
"HX c #414A31",
"JX c #394129",
"KX c #9C0000",
"LX c #5A4A31",
"PX c gray32",
"IX c #5A4129",
"UX c #414141",
/* pixels */
"VXZXVXVXZXhXvXvXvXvXxXhXhXhXlXNXnXlXBXfXhXvXxXxXxXvXhXhXhXvXxXxXvXxXvXvXxXvXxXxXvXxXvXxXxXvXxXvXNXMXlXNXNXlXMXAXZXNXVXMXVXNXlXNX",
"VXMXVXNXlXVXhXhXvXxXvXxXvXhXhXhXhXhXvXvXvXvXxXxXxXvXxXxXxXvXvXhXfXNXZXCXAXZXfXfXxXxXxXxXvXvXhXfXNXlXNXVXlXMXNXVXMXVXVXNXlXZXVXlX",
"NXVXZXMXNXVXHXhXvXxXvXxXvXfXMXCXCXCXMXAXfXhXhXvXxXvXxXvXvXhXlXNXZXCXNXBXZXVXBXCXfXvXvXxXvXhXMXVXlXNXVXlXNXNXSXVXNXVXlXNXAXMXVXlX",
"NXVXAXMXNXAXVXVXhXvXvXhXVXHXVXVXVXZXMXBXZXBXBXhXxXxXvXhXlXNXAXCXMXAXMXlXMXNXVXCXAXhXvXxXvXfXlXlXVXNXNXNXVXkXlXVXlXNXlXBXMXNXNXdX",
"lXNXMXAXZXlXlXCXfXhXhXBXlXlXBXlXVXMXCXBXZXMXNXhXvXvXhXVXNXVXlXVXVXlXVXlXVXlXlXZXAXfXxXxXhXlXNXlXZXlXVXlXNXlXAXMXVXlXVXNXlXNXNXlX",
"MXVXAXlXMXMXMXVXVXhXhXlXMXNXZXAXIXZXBXMXlXhXvXvXvXBXMXVXAXlXlXNXlXNXVXMXVXMXNXAXMXZXvXxXfXlXNXlXkXVXlXMXlXVXMXBXAXMXNXlXlXNXVXMX",
"VXNXNXVXlXHXBXlXCXhXhXZXMXMXBXZXlXVXhXvXvXxXvXhXkXVXAXlXNXlXlXlXNXMXNXVXMXBXMXAXMXAXvXxXfXBXZXVXlXBXmXVXlXlXNXMXZXBXlXNXlXNXlXMX",
"NXNXNXlXMXNXMXMXVXNXhXhXNXlXAXhXvXxXxXvXhXlXNXlXVXMXBXlXlXVXBXlXNXNXlXBXMXVXMXMXVXZXhXxXfXNXMXNXnXlXmXlXBXlXJXBXlXZXlXNXNXVXVXBX",
"VXlXNXlXMXAXMXBXZXCXfXhXhXvXvXvXxXvXAXlXlXVXAXMXlXBXMXVXlXNXlXlXNXlXVXMXHXZXMXBXMXkXhXvXhXlXVXlXlXVXmXlXNXMXVXZXBXMXBXlXlXVXNXlX",
"MXBXlXVXMXVXAXBXlXCXNXvXxXvXxXhXlXVXVXMXVXlXZXHXVXlXMXNXMXlXVXlXlXNXlXBXBXNXNXlXMXhXvXxXhXMXlXlXVXlXlXVXJXlXNXHXlXZXlXMXNXNXkXBX",
"lXNXNXlXNXMXMXMXlXAXMXhXxXhXhXlXVXBXCXNXNXHXMXNXMXlXlXBXMXNXlXNXlXMXNXZXCXZXMXBXfXvXFXxXhXMXlXlXlXNXlXlXlXVXNXNXNXlXBXZXNXNXMXMX",
"ZXVXlXlXAXlXMXBXNXNXAXMXhXxXhXlXlXVXlXMXNXlXAXMXMXMXlXBXlXNXlXNXMXMXMXAXlXlXhXhXvXxXFXxXvXVXZXnXVXlXVXlXMXlXVXNXlXBXZXlXMXnXMXNX",
"MXlXkXNXMXlXBXMXNXNXNXVXNXhXxXfXfXAXlXAXNXJXBXHXlXlXBXMXNXlXAXBXZXMXNXvXhXvXvXvXvXvXvXvXvXNXMXAXBXBXlXVXVXlXBXVXVXNXVXlXlXlXBXlX",
"BXMXVXlXVXZXBXlXVXlXlXMXiXVXhXxXhXhXhXNXMXBXMXZXlXNXlXZXBXMXAXBXVXhXvXvXvXhXfXBXAXBXZXhXvXhXBXlXBXZXlXMXlXVXNXBXMXBXNXlXNXkXlXNX",
"MXVXlXNXNXNXlXBXNXlXMXMXAXVXlXvXxXvXhXfXVXlXAXZXBXBXAXBXAXAXMXVXhXvXhXhXfXVXlXBXCXVXCXMXvXxXhXhXBXMXBXlXBXlXVXMXNXMXNXVXlXBXlXlX",
"VXlXlXBXVXMXlXMXVXlXlXAXZXBXMXhXhXxXvXxXhXfXNXMXVXMXBXBXlXNXhXvXvXhXfXZXAXBXAXBXVXCXCXCXMXhXxXvXhXMXAXAXlXNXlXNXMXBXMXNXlXkXAXlX",
"BXMXVXlXZXBXlXMXMXBXZXBXAXAXfXxXxXxXhXlXhXvXxXxXvXhXHXlXhXhXvXvXfXHXAXZXVXVXMXBXVXMXNXBXVXAXMXxXvXhXlXMXBXaXBXBXlXlXMXVXlXNXHXNX",
"MXVXNXlXNXMXlXBXMXCXAXZXBXlXvXxXvXhXMXlXlXBXZXhXxXhXhXhXvXxXvXlXAXZXHXAXMXAXlXMXJXNXkXVXNXVXVXfXvXxXvXMXlXBXaXZXBXHXkXlXlXBXVXlX",
"NXMXlXNXZXBXZXCXAXBXMXNXfXhXxXxXxXhXZXlXMXNXMXMXhXvXxXFXFXxXvXNXlXNXlXVXMXZXAXZXVXNXVXMXBXVXZXNXfXxXxXvXhXBXZXsXBXBXBXlXMXMXNXNX",
"lXAXMXMXZXCXBXNXMXfXhXhXhXhXvXvXhXhXhXvXxXvXvXvXxXvXvXxXFXxXvXNXVXlXMXBXZXAXVXNXlXAXlXMXZXlXMXZXBXhXvXvXxXvXhXMXCXBXBXlXMXNXNXBX",
"NXkXZXAXBXBXhXvXvXvXhXhXfXNXBXlXlXMXAXZXZXAXAXZXAXZXMXhXvXFXxXvXNXNXNXBXVXVXVXNXNXMXMXVXVXlXNXlXlXhXvXhXhXvXxXhXAXBXZXBXlXnXZXlX",
"BXBXAXMXMXhXvXvXvXvXhXfXNXAXNXNXZXAXVXBXCXCXBXCXBXAXVXMXMXvXxXvXvXhXMXBXVXVXMXAXAXMXVXMXVXlXlXdXfXhXfXMXMXhXvXxXvXhXBXBXBXZXlXlX",
"MXBXMXhXvXvXvXvXvXhXfXNXVXAXNXVXNXNXBXZXAXMXZXAXZXCXUXVXAXMXhXhXxXvXhXZXVXZXAXMXNXlXlXlXlXlXlXlXhXhXMXBXAXMXAXvXxXvXhXZXZXMXMXBX",
"NXhXvXhXfXhXfXfXvXhXlXVXBXlXNXlXlXmXVXVXVXZXAXAXZXNXBXUXiXUXVXNXMXvXvXhXNXNXlXAXBXZXHXlXlXMXlXfXhXfXlXAXAXCXBXVXCXhXxXhXhXAXZXMX",
"vXvXfXNXNXlXNXNXvXvXhXmXVXBXlXAXnXMXVXlXVXBXZXZXBXMXMXAXCXAXCXIXNXZXvXvXhXlXHXZXMXBXlXAXMXlXVXhXhXNXlXVXVXMXZXGXMXZXhXhXhXvXvXhX",
"AXMXBXVXAXCXNXVXfXvXhXlXlXNXNXlXlXBXVXlXVXZXZXCXVXBXBXNXVXZXBXCXCXVXMXhXvXhXNXNXBXCXBXBXlXVXhXvXhXZXAXVXlXNXVXAXBXCXAXNXBXVXAXlX",
"MXAXAXBXCXVXVXiXlXvXvXhXmXNXlXVXNXAXMXAXlXAXAXMXAXMXNXlXlXVXlXZXAXUXCXMXvXxXhXBXNXZXZXNXVXhXvXxXvXVXVXlXlXMXlXAXNXNXZXAXCXZXVXZX",
"lXBXVXMXZXHXMXCXAXhXvXhXNXBXkXNXNXNXlXVXVXNXVXZXVXMXZXZXlXlXlXBXMXCXAXVXMXxXvXhXNXNXlXfXhXvXxXxXhXMXCXVXVXVXlXNXZXNXMXVXZXAXAXNX",
"lXVXlXBXMXlXMXAXAXlXvXvXfXNXAXMXNXlXVXlXNXlXAXZXZXAXZXNXlXNXlXNXNXNXCXCXCXMXvXxXxXvXhXvXvXvXFXxXhXlXAXlXNXmXVXlXBXMXBXNXnXAXVXlX",
"lXMXVXNXlXkXNXMXCXMXfXvXvXAXBXMXVXMXmXlXVXNXMXNXVXAXlXNXNXlXNXVXlXBXAXBXCXZXfXhXxXxXvXvXxXFXFXxXhXAXVXMXNXVXZXBXBXMXZXlXNXNXVXlX",
"VXBXNXVXlXBXBXlXAXCXlXvXvXfXBXMXNXVXlXVXMXAXBXAXZXVXNXlXlXlXNXlXVXMXVXVXBXUXlXhXxXxXvXvXvXvXxXxXvXAXVXCXVXNXVXkXNXAXdXNXlXNXlXlX",
"NXVXlXlXlXMXNXlXAXCXlXhXvXvXVXBXMXlXlXNXMXMXBXNXVXlXNXlXlXMXNXlXBXNXMXMXMXCXMXfXxXhXhXNXMXfXhXvXvXfXVXNXCXNXVXMXlXlXlXlXlXVXNXVX",
"AXlXBXlXlXlXMXJXZXVXlXfXvXhXVXZXZXlXVXMXMXHXVXVXNXAXMXVXlXMXMXlXHXMXHXlXAXZXMXhXvXfXNXSXAXNXVXhXvXhXfXlXlXMXVXlXVXNXVXlXlXVXNXlX",
"MXNXZXVXlXlXNXNXZXNXNXvXvXvXlXCXlXNXVXMXNXMXZXIXAXMXVXNXNXNXVXMXlXHXMXBXNXZXMXhXhXfXlXVXSXmXkXMXhXvXvXhXfXMXZXVXlXNXNXlXVXlXNXNX",
"lXNXBXmXBXMXNXlXlXVXhXvXxXvXlXBXBXlXHXNXAXAXZXMXNXNXlXBXVXkXlXBXVXMXBXMXBXMXlXhXfXlXVXNXNXnXNXVXZXCXhXhXvXfXZXZXBXNXAXNXMXVXlXlX",
"lXNXMXkXBXMXlXJXlXlXhXvXxXvXlXZXBXVXMXZXAXNXCXBXVXVXdXNXlXBXlXNXNXlXMXBXZXMXhXhXAXMXlXlXlXVXlXlXAXZXCXAXhXvXhXNXZXVXMXlXBXlXlXlX",
"MXNXVXBXNXlXlXMXVXNXZXhXhXvXhXBXMXAXNXVXAXVXNXVXNXMXNXlXNXNXVXZXlXMXAXZXBXvXhXfXNXVXVXVXlXNXlXVXZXAXVXGXGXvXvXhXVXAXBXlXlXlXNXnX",
"BXMXVXBXAXVXVXlXlXVXNXlXVXhXvXhXAXZXVXNXNXVXkXVXBXAXmXNXVXMXNXZXZXAXZXBXvXhXhXMXVXAXlXNXlXVXNXlXlXlXZXCXAXGXhXxXfXVXAXMXVXNXlXNX",
"MXVXMXVXZXZXlXNXdXNXVXZXAXlXvXvXhXZXlXMXAXVXVXNXNXlXNXlXNXAXZXBXZXBXhXhXhXfXMXZXVXMXAXVXlXVXNXMXmXlXMXlXGXAXCXhXhXMXZXCXMXVXlXlX",
"VXlXNXAXAXlXlXVXVXlXMXAXZXNXhXvXxXZXZXHXlXVXVXMXBXMXNXBXMXBXZXBXhXvXvXhXfXlXBXNXNXVXAXVXlXVXNXmXlXdXNXVXNXCXBXhXvXhXlXBXZXVXVXlX",
"IXNXAXNXAXBXlXlXlXlXMXlXVXAXnXhXvXhXAXBXAXNXAXBXlXlXBXBXBXZXhXvXvXhXfXfXNXBXNXVXmXlXlXlXlXAXlXAXlXVXmXlXNXIXAXCXhXvXhXVXZXAXNXNX",
"kXNXAXkXmXVXlXlXlXNXVXMXZXNXNXhXvXvXvXZXBXaXZXZXVXMXBXCXMXhXhXvXhXfXNXHXMXAXkXZXCXlXlXAXlXlXVXlXAXVXlXNXlXlXAXVXhXhXvXhXlXAXAXlX",
"VXlXZXBXlXlXlXNXlXNXNXVXZXCXNXlXhXxXxXhXBXaXBXBXBXCXCXZXhXvXhXhXNXNXMXNXMXZXNXZXVXVXNXMXNXkXlXNXMXAXNXVXlXNXMXHXZXhXvXhXhXNXBXMX",
"lXVXNXNXMXVXlXNXMXMXBXAXAXAXBXfXvXxXFXvXhXBXCXBXCXCXAXvXvXvXMXMXVXlXlXAXMXBXAXAXNXVXlXlXlXlXlXlXVXlXlXNXkXZXVXMXVXZXhXvXvXhXMXCX",
"ZXlXNXAXlXZXBXZXAXBXAXMXZXMXhXvXvXFXFXFXvXvXhXAXCXBXvXxXvXxXlXMXBXlXNXBXNXMXVXZXNXNXlXBXmXlXNXlXNXlXlXVXNXkXVXVXCXAXfXvXvXhXMXMX",
"AXBXAXZXZXCXZXAXBXZXfXvXxXxXvXvXvXxXvXvXxXxXvXxXxXxXxXxXxXxXfXBXMXCXZXAXBXZXlXVXAXlXVXlXVXlXlXNXlXVXlXlXkXBXlXlXMXZXVXvXvXhXfXlX",
"ZXCXZXZXZXMXZXhXhXhXvXvXvXvXhXAXVXAXCXBXiXAXBXCXMXhXvXvXxXxXhXfXBXlXBXBXCXZXIXMXVXlXMXMXlXNXMXlXVXHXlXlXlXlXBXZXVXlXfXvXxXvXhXfX",
"lXBXZXVXhXvXhXhXhXfXZXhXvXvXBXZXZXZXVXAXBXNXCXAXBXCXZXAXhXxXxXvXvXhXfXBXNXBXZXCXBXNXAXMXZXlXNXlXNXNXlXBXBXHXNXNXNXfXhXhXvXFXvXvX",
"hXhXhXhXvXhXfXMXAXNXhXfXvXhXBXlXNXMXNXlXVXVXNXMXAXNXGXCXZXhXxXxXxXvXhXvXhXhXlXAXAXBXBXVXBXlXNXlXlXVXmXNXlXBXVXlXfXfXhXhXxXFXFXvX",
"hXhXhXhXhXlXNXCXBXCXNXfXvXfXlXNXNXNXJXlXBXBXMXNXVXNXVXCXCXvXxXvXGXVXAXhXvXvXvXfXNXBXZXBXBXlXNXVXBXMXBXMXZXJXlXfXhXfXAXBXhXhXFXhX",
"hXhXfXVXZXHXAXNXAXZXJXhXvXCXlXlXVXlXVXNXMXNXMXAXZXlXZXHXZXxXvXCXMXIXCXUXGXhXhXhXhXMXAXCXBXZXMXZXBXMXBXlXlXfXhXfXlXVXAXNXVXfXxXhX",
"hXBXBXGXBXZXMXlXNXCXMXvXhXMXVXMXlXlXAXlXBXAXZXAXNXVXAXZXvXxXiXMXVXNXAXAXiXCXAXhXhXhXVXZXAXAXMXZXBXlXlXfXhXhXfXVXAXAXMXAXMXfXvXvX",
"VXVXAXHXMXAXlXNXVXMXhXvXfXVXlXnXlXlXMXZXVXNXAXMXAXMXNXhXxXvXIXVXNXNXVXAXVXUXPXCXCXxXxXhXMXHXNXfXfXhXvXhXfXAXNXAXZXNXMXAXfXhXhXfX",
"NXMXMXNXlXNXlXVXNXlXhXvXAXAXNXnXNXNXlXAXBXMXNXNXBXlXhXxXvXAXVXNXlXlXZXBXBXBXCXUXAXBXvXFXxXxXxXxXhXhXVXBXlXVXAXMXVXMXAXfXhXvXHXNX",
"MXVXMXVXlXNXNXNXlXVXvXhXBXlXlXlXNXMXMXBXMXCXNXVXMXlXvXvXAXCXlXmXBXZXBXMXAXBXAXMXAXAXVXhXFXKXFXhXZXAXCXZXZXAXlXBXAXMXhXvXhXHXlXlX",
"lXVXVXAXnXSXnXlXmXhXvXAXBXkXlXZXlXAXMXMXAXMXVXlXMXAXvXvXCXNXlXlXlXVXBXMXNXVXHXMXNXZXBXMXhXFXhXlXVXVXBXNXNXMXBXlXfXvXvXhXlXCXZXZX",
"NXAXMXNXVXnXSXMXVXvXhXMXVXlXlXNXmXlXNXVXMXVXMXHXVXhXvXBXMXlXlXMXVXlXlXBXBXZXNXBXMXNXZXCXMXhXvXVXmXNXlXAXBXMXhXvXvXhXlXVXNXlXZXMX",
"BXlXMXVXlXmXVXMXNXvXzXNXlXNXBXlXMXVXlXVXNXMXBXBXZXvXhXNXlXVXlXlXlXVXNXBXNXMXNXMXNXVXNXCXZXBXhXhXlXMXMXBXkXfXvXvXhXMXCXVXZXBXNXlX",
"NXlXMXMXVXnXMXVXfXvXZXVXNXVXVXNXVXVXkXVXMXNXBXMXhXvXAXlXMXlXMXmXlXBXlXlXMXlXlXVXlXNXBXMXCXVXAXvXxXhXNXfXvXxXxXhXlXCXlXNXNXMXMXZX",
"lXVXVXMXVXMXZXNXvXhXZXlXNXdXVXNXNXlXBXNXHXBXlXMXvXhXMXNXlXmXlXMXVXMXMXMXVXVXNXNXVXlXBXMXVXZXVXhXvXxXxXxXxXxXhXlXBXMXBXVXlXVXnXlX",
"ZXVXNXlXAXZXBXhXvXhXlXNXNXdXNXlXNXlXVXNXVXBXBXhXvXVXMXNXNXNXlXNXNXNXHXMXNXlXNXBXkXAXNXVXlXMXAXhXvXpXpXpXxXxXfXMXMXAXMXMXBXlXVXMX",
"BXAXIXBXZXCXlXvXhXBXVXlXlXNXMXNXlXNXlXlXMXHXfXvXhXMXAXlXMXVXMXlXlXVXlXMXlXHXNXlXAXMXHXNXlXHXVXhXhXpXpXxXvXhXhXhXkXMXlXZXMXMXBXBX",
"NXVXmXNXmXlXvXvXhXBXlXHXnXlXVXBXlXNXlXNXBXZXhXvXhXfXMXBXMXMXAXBXAXAXZXBXBXBXAXBXMXAXZXBXAXZXhXvXvXhXfXlXVXNXhXvXhXhXfXlXlXkXVXMX",
"vXvXvXvXvXvXvXxXvXhXAXMXMXMXMXNXNXlXNXlXhXhXvXxXhXhXhXlXlXlXlXBXlXNXlXlXVXlXlXlXlXlXBXlXMXhXvXxXvXlXAXCXVXAXBXAXlXfXhXhXvXhXvXfX"
};
