/* XPM */
static char * doom_north[] = {
"64 64 300 2",
"  	c #4D351B",
". 	c #5A4228",
"+ 	c #594127",
"@ 	c #533B21",
"# 	c #553D23",
"$ 	c #563E24",
"% 	c #573F25",
"& 	c #5F472D",
"* 	c #584026",
"= 	c #5B4329",
"- 	c #5C442A",
"; 	c #523A20",
"> 	c #543C20",
", 	c #563E22",
"' 	c #573F23",
") 	c #5A4226",
"! 	c #5E462A",
"~ 	c #594125",
"{ 	c #5B4327",
"] 	c #5C4428",
"^ 	c #553D21",
"/ 	c #472D14",
"( 	c #62482F",
"_ 	c #6E543B",
": 	c #694F36",
"< 	c #684E35",
"[ 	c #664C33",
"} 	c #644A31",
"| 	c #533920",
"1 	c #583E25",
"2 	c #5C4229",
"3 	c #5A4027",
"4 	c #553B22",
"5 	c #543A21",
"6 	c #5D432A",
"7 	c #50381E",
"8 	c #4B3319",
"9 	c #51391F",
"0 	c #5E462C",
"a 	c #60482E",
"b 	c #462E14",
"c 	c #695137",
"d 	c #6B5339",
"e 	c #674F35",
"f 	c #685036",
"g 	c #624A30",
"h 	c #644C32",
"i 	c #543C22",
"j 	c #5D452B",
"k 	c #61492F",
"l 	c #5D4529",
"m 	c #584024",
"n 	c #50381C",
"o 	c #482E15",
"p 	c #6C5239",
"q 	c #60462D",
"r 	c #50361D",
"s 	c #5B4128",
"t 	c #593F26",
"u 	c #563C23",
"v 	c #52381F",
"w 	c #51371E",
"x 	c #664E34",
"y 	c #472F15",
"z 	c #4F371D",
"A 	c #634B31",
"B 	c #533B1F",
"C 	c #40280E",
"D 	c #493117",
"E 	c #4A3218",
"F 	c #654D33",
"G 	c #4D3519",
"H 	c #523A1E",
"I 	c #3C240A",
"J 	c #4C341A",
"K 	c #402B10",
"L 	c #5D482D",
"M 	c #634E33",
"N 	c #543F24",
"O 	c #5C472C",
"P 	c #574227",
"Q 	c #503B20",
"R 	c #584328",
"S 	c #564126",
"T 	c #513C21",
"U 	c #4E391E",
"V 	c #4F3A1F",
"W 	c #523D22",
"X 	c #4E361C",
"Y 	c #51391D",
"Z 	c #422D12",
"` 	c #533E23",
" .	c #554025",
"..	c #594429",
"+.	c #3F2A0F",
"@.	c #4D391E",
"#.	c #513D22",
"$.	c #4F3B20",
"%.	c #544025",
"&.	c #533F24",
"*.	c #503C21",
"=.	c #554126",
"-.	c #4E3A1F",
";.	c #5A452A",
">.	c #3E260C",
",.	c #452D13",
"'.	c #432B11",
").	c #422A10",
"!.	c #4D381D",
"~.	c #483419",
"{.	c #4A361B",
"].	c #4C381D",
"^.	c #463217",
"/.	c #523E23",
"(.	c #49351A",
"_.	c #473318",
":.	c #604B30",
"<.	c #574328",
"[.	c #533B23",
"}.	c #594129",
"|.	c #563E26",
"1.	c #543C24",
"2.	c #584028",
"3.	c #5D452D",
"4.	c #4A321A",
"5.	c #5C442C",
"6.	c #573F27",
"7.	c #5A422A",
"8.	c #553D25",
"9.	c #4B361B",
"0.	c #4E361E",
"a.	c #503820",
"b.	c #412911",
"c.	c #523A22",
"d.	c #5E462E",
"e.	c #462E16",
"f.	c #5B432B",
"g.	c #483018",
"h.	c #533A24",
"i.	c #4F3620",
"j.	c #4E351F",
"k.	c #573E28",
"l.	c #553C26",
"m.	c #503721",
"n.	c #462D17",
"o.	c #513822",
"p.	c #563D27",
"q.	c #523923",
"r.	c #543B25",
"s.	c #513921",
"t.	c #573D24",
"u.	c #4C341C",
"v.	c #4F3922",
"w.	c #4D341E",
"x.	c #4C361F",
"y.	c #59402A",
"z.	c #564029",
"A.	c #523C25",
"B.	c #4B321C",
"C.	c #543E27",
"D.	c #5C432D",
"E.	c #583F29",
"F.	c #5C462F",
"G.	c #614832",
"H.	c #473217",
"I.	c #4B371C",
"J.	c #483318",
"K.	c #422E13",
"L.	c #453015",
"M.	c #453116",
"N.	c #3E2A0F",
"O.	c #3E290E",
"P.	c #3F2B10",
"Q.	c #432E13",
"R.	c #443015",
"S.	c #422C14",
"T.	c #4A361D",
"U.	c #443017",
"V.	c #452F17",
"W.	c #422E15",
"X.	c #4C361E",
"Y.	c #3E2810",
"Z.	c #412D14",
"`.	c #453118",
" +	c #4A341C",
".+	c #4C381F",
"++	c #4B351D",
"@+	c #442F14",
"#+	c #4A351A",
"$+	c #493419",
"%+	c #463116",
"&+	c #432B13",
"*+	c #472F17",
"=+	c #402810",
"-+	c #3F270F",
";+	c #4D351D",
">+	c #452D15",
",+	c #442C14",
"'+	c #4F371F",
")+	c #564227",
"!+	c #584429",
"~+	c #523E25",
"{+	c #5E4A31",
"]+	c #58442B",
"^+	c #59452C",
"/+	c #564229",
"(+	c #5D4930",
"_+	c #5A462D",
":+	c #5B472E",
"<+	c #544027",
"[+	c #5F4B30",
"}+	c #5E4A2F",
"|+	c #493119",
"1+	c #5F472F",
"2+	c #5A462B",
"3+	c #59452A",
"4+	c #49351C",
"5+	c #57432A",
"6+	c #503C23",
"7+	c #4B371E",
"8+	c #533F26",
"9+	c #554128",
"0+	c #4E3A21",
"a+	c #634F34",
"b+	c #614D32",
"c+	c #48341B",
"d+	c #4F3B22",
"e+	c #5C482F",
"f+	c #513D24",
"g+	c #5C482D",
"h+	c #5D492E",
"i+	c #5B472C",
"j+	c #4D3920",
"k+	c #644C34",
"l+	c #432F14",
"m+	c #412D12",
"n+	c #47331A",
"o+	c #463219",
"p+	c #604C31",
"q+	c #4B331B",
"r+	c #655136",
"s+	c #604830",
"t+	c #634B33",
"u+	c #614931",
"v+	c #5F4A2F",
"w+	c #4F3921",
"x+	c #4D371F",
"y+	c #48321A",
"z+	c #442E16",
"A+	c #432F16",
"B+	c #4C371C",
"C+	c #402C11",
"D+	c #422A12",
"E+	c #533D25",
"F+	c #564028",
"G+	c #543E26",
"H+	c #5B452D",
"I+	c #574129",
"J+	c #523C24",
"K+	c #553F27",
"L+	c #513B23",
"M+	c #58422A",
"N+	c #442B15",
"O+	c #654D35",
"P+	c #695139",
"Q+	c #664E36",
"R+	c #674F37",
"S+	c #4F371B",
"T+	c #6A5238",
"U+	c #4E361A",
"V+	c #482F19",
"W+	c #4A311B",
"X+	c #624A32",
"Y+	c #685038",
"Z+	c #3E260E",
"`+	c #483016",
" @	c #483014",
".@	c #442C12",
"+@	c #4C3418",
"@@	c #503A22",
"#@	c #4E3820",
"$@	c #3E2A11",
"%@	c #432D15",
"&@	c #463018",
"*@	c #402C13",
"=@	c #49331B",
"-@	c #473119",
";@	c #604C33",
">@	c #645037",
",@	c #5F4B32",
"'@	c #3C280F",
")@	c #5A442C",
"!@	c #624E35",
"~@	c #634F36",
"{@	c #6A563D",
"]@	c #68543B",
"^@	c #5D472F",
"/@	c #634D35",
"(@	c #59432B",
"_@	c #614D34",
"  . + @ # $ % & $ * = - - = % ; > , ' ' ) ! ! ~ ) ~ { ] ~ > ^ { / ( _ : < [ ( } | 1 2 3 4 5 1 6 + 7 8 9 * - 0 a @ * = = = * 7 b ",
"= c d e d f g h i j k 0 . - = * ] l { m ' ~ , n ^ , ) ! { , ^ ~ o } p q 2 3 | r 3 s 3 t u | v w   ; j e x +   y % * % i # * % ; ",
"z 0 g g f A % i # A e - # . - * B , , ^ ' { ) ^ B > ~ ! l ' ^ ' C a c . + 0 * ; % $ $ * = - + $ f k % z D E $ h . . % @ i * * # ",
"9 j & & e h + # + F F % ; + . ; G n H B ' l l ~ ' , m ] { , > , I 0 e + = x A = 9 ; # * = - - = . * * * # # - F * . . % % % ; J ",
"- A & . k a + * = a - ; i j = 7 ~ { ~ , ' m , n ] m , m ' > > , K L M N N O P Q Q N R S T U V W X 9 = F e a . % % + * # i # 9 8 ",
"= k . 9 @ ; X 9 $ i 9 7 % 0 - i { ] ) , , ' B G { ^ Y B > H H ^ Z R O W ` S W Q Q  ...P T V ` R g - * * * % * - * % ;   X i $ @ ",
"# & - @ i ; X ; 7 E D z @ ; 9 ;   z z X z @ 9 J @   8 z ; 9 7 ; +.@.#.$.%.&.*.=.-.*.#.*.$.#.=.;.$ * j k - @ z 9 * % @ z 7 # $ @ ",
">.  7 J X 8 y J J ,.b X J '.).E ,.y y ,.b D y ).E b b   ; 9 z !.+.~.{.].*.{.^.*./.-.(.^.^._.~._.X @ = - # X 9 . $ + . * % % 9 D ",
"i % % i % - = # - % ; 9 i % % $ * . i ; + # J J y ; % i @ . j R :.<././.*.].-.=.&.&.%.%.=.=.=.%.# j * i . + 7 z h j h = % - i - ",
"a 0 % z z # % i j j - = + * * + + 0 + % j = # * 9 = k - . & a - S #.*.&.#.].{.@.-.$./.%.=.=.%.N # = % @ + . @ 7 j $ j # i + 7 # ",
"= + @ X z $ + * $ . j = $ @ i % [.}.|.1.}.2.|.3.4.|.5.2.6.7.7.8.N T Q T T !.!.V 9.!.T N  . .N ` $ % # @ % . * ; & % 0 . j h + - ",
"# # i i $ % # ; i # $ # ; 9 @ $ 0.|.[.a.1.[.[.3.b.0.|.1.1.}.}.1... .T V V Q N P V Q T W ` N N N * @ @ @ i - - @ 0 # j = k f - j ",
"a - + % # 7 J D k - $ @ i % * * c.}.6.[.|.8.8.d.e.[.f.7.}.d.d.}.* * % # # % * * + % # i @ # $ * + z ; i @ j a ; . 9 % ; $ - X z ",
"h - i ; 9 7 9 # f a $ ; @ # # i c.}.8.[.2.|.[.f.g.1.7.|.8.2.2.[.7 $ + + + + # z - . % # # # % * . J ; % ; j A z g + j # i % E 8 ",
"- i z 9 i # . a - * @ z X 7 ; @ 0.h.i.j.k.l.m.l.n.o.p.q.m.r.l.s.5 t t u 4 1 u w 1 t t 3 3 t 1 t.= E ; . ; 0 h 8 x 0 A . % = 9 $ ",
"+ W i P =  .# S X U ; V z U # R u.v.w.x.y.z.q.A.B.C.D.z.E.F.G.d.& 0 $ J 8 i . . 9 i * - - . $ i = D @ - ; 0 h D + @ = @ 9 % 9 . ",
"H.I.T -.J.K.L.~.J.M.Z N.O.P.Q.R.S.T.S.U.V.W.X.W.Y.Z.V.`. +.+++V.L.Z U @+Q Z H.K O.9.#+Q.H.$+%+#+&+*+=+-+;+s.*+&+&+>+e.,+&+e.'+6.",
"&.)+!+<./.*./.%./.&.=.)+=.&.*.$.~+{+]+^+/+~+(+]+]+_+:+^+:+(+_+<+I.I.#.*.<.%.!+)+!+[+)+{.@./.)+}+|+2.7.8.|.1.[.f.6.f.1+d.7.6.}.f.",
"$.$.-.@.].@.-.*.%.)+!+2+3+<.=.&.4+^+/+5+6+7+^+5+/+]+/+~+8+9+8+0+&.=.*.=.*.<.=.!+[+a+3+-.#.=.!+b+4.f.1+2.|.[.1.3.8.2.7.2.1.a.a.c.",
"=.#.-.@.*.&.=.%./.*.-.@.@.$.#.&.c+5+<+5+8+d+e+]+9+9+8+d+6+<+<+6+#.%.~./.M./.].&.#.!+=.#.)+%.$.&.|.1+5.2.1+1+}.7.}.2.|.c.a.s.6.f.",
"<./.@.].#.=.)+=.&./.#.*.#.&.=.)+c+<+d+<+/+<+{+/+/+/+8+d+6+<+9+f+(.@.R.*._.!+%.g+@.=.=.<.}+3+*.&.[.5.2.1.f.7.1.8.}.6.1.c.s.1.}.3.",
"/.-.(.(.@.*.#.#.*.&.!+g+h+i+!+=.U.0+c+0+~+6+]+0+<+<+f+.+j+6+d+7+I.-.I.#.$.<.)+2+%.<.%.<.[+2+%.2+u.3.1+6.1.a.a.}.a.s.c.c.c.a.'+0.",
"&.#.$.-.$.#.&.&.(.]./.)+!+)+/.*..+]+<+5+9+f+^+~+9+/+9+~+8+5+/+~+-.-.&.*.)+#.%./.%.%.$.&.i+=.-.=.8.k+k+3.5.}.|.3.|.|.|.6.6.8.[.s.",
"R.l+K.m+m+m+l+R._._.~.(.{.].-.$.n+5+9+9+0+o+6+7+o+4+4+4+.+~+~+0+~._.=.$.p+=.}+3+$.*.-.%.g+&._.I.;+a.*+,+a.s.e.b.1.a.u.4.q+0.s.[.",
"~./._.3+^.@.@.m+l+~.{.I.*.%.$.^.U.4+6+f+7+o+j+]+T.4+4+7+0+d+0+.+$.%.<.)+=.)+&.-.M.!+#.=.i+%.)+/.|.6.|.1.s.[.}.d.3.2.[.1.6.}.|.c.",
"2+2+)+)+/.-.h+-.r+b+3+#.#.<.!+%.~+f+~+9+8+d+f+/+7+.+j+.+T.7+d+8+#.%.%.*.$.#.$.I.^.<.-.*.=.-./.-.c.[.1.1.[.[.1.8.}.2.7.3.s+d.}.1.",
"2+<.g+#.!+~.[+{.[+[+g+2+2+2+%.@.^+~+0+~+<+~+0+j+d+~+8+d+T.7+8+:+)+!+=.*.-.#.#.-.{.i+*.#.%.@.#.-.[.1.8.6.2.6.[.a.[.6.d.t+k+u+f.6.",
"-.#.)+)+)+~.=.P.l+^.{.*.=.)+*.(.]+f+j+6+8+6+.+7+d+f+f+d+7+.+~+5+%.)+%.*.$././.$.(.2+#./.)+-.*.].1.[.[.8.2.|.s.u.s.|.5.s+s+d.5.f.",
"$.!+#.p+*./.&.R.I.^.l+^.-.=.3+i+5+9+9+5+9+f+f+9+0+j+j+j+0+d+d+d+{.-.$.@.@.*.$.I.R.<.*.&.<.-.$.(.1.s.'+'+c.c.'+u.|.6.2.2.2.7.d.u+",
"<.[+@.h+_.=.!+*.i+)+%.3+h+}+h+h+~+8+/+5+8+0+f+]+<+8+~+8+/+/+<+f+I.$.#.*.*.&.&.$.~.2+&.=.3+#./.@.6.8.c.s.c.1.1.1.f.2.8.1.8.}.3.1+",
")+!+-.&.{.-.i+#.)+&.<.[+b+2+#.-.j+j+d+f+.+c+T.6+<+<+<+8+~+~+<+9+%.<.)+&.&.<.!+)+@.h+/.#.%.@.*.@.1.8.8.1.[.[.|.6.2.8.c.[.|.6.|.[.",
"W *.S $.P (.v+I.Q ^.Z M.$+^.H.(.w+.+x+j+X.o+y+T.++.+x+c+z+A+++6+;.3+P *.T %.R )+B+!+$+M.J.C+J.%+D   a.z ;+u.0.s.c.a.'+[.|.8.0.e.",
"D+E+5.F+}.G+8.H+6.G+|.F+7.I+6.J+|.H+d.K+1.I+2.L+|.M+8.L+}.E+0.w+,.9.% ;.+ ` # N * ..j ;.+  .+ = + m + ] + @ ; # i = f.|.1.|.m.N+",
"8.O+P+t+u+f.|.7.6.}.f.7.|.1.1.|.[.7.d.3.f.f.}.8.c.}.6.|.f.6.a.1.7 j x F a 0 j - $ % * * # @ 9 9 > B ^ ' ^ Y 9 # ; % f.5.3.3.p.j.",
"}.Q+R+s+s+f.1.|.7.d.s+5.8.s.8.7.|.|.2.f.}.1.1.6.c.f.f.}.5.6.[.7.y . F j $ + + i . + + + * # 7   Y S+n H Y S+9 $ 7 9 |.d.s+7.h.m.",
"[.d.f.|.7.7.8.}.5.d.d.f.8.1.6.f.5.1.s.[.s.q+'+}.}.t+u+f.f.|.1.3.b 0 T+0 * a g = - . + . = + @ X B Y Y H Y U+9 $ i X s.}.}.'+V+W+",
"}.X+3.|.f.f.7.d.7.2.|.8.8.|.6.6.7.1.1.2.6.s.[.3.t+P+t+7.6.c.c.5.b j e = $ 0 a * $ i i $ * * i 7 ~ , ^ ^ B S+9 $ . ; a.8.1.q+V+B.",
"d.Y+k+f.f.2.8.f.8.[.a.s.[.8.1.c.8.6.3.t+t+d.5.d.X+R+1+|.8.s.a.}.y $ - i z i @ J ; ; ; i $ % $ # ) m ' m ^ Y ; $ - % 1.8.|.[.q.h.",
"a.s+X+5.7.8.s.|.8.|.|.|.8.[.[.[.6.5.1+d.5.3.3.7.|.f.8.s.|.[.'+8.7 $ . * $ $ i z z 7 7 7 7 9 i $ , ^ , m , H ; # % * 6.1.8.2.p.q.",
"Z+[.d.3.3.2.1.}.2.3.u+d.2.[.1.6.1+X+f.0.4.s.|.1.4.'+;+0.6.8.'+[.,.,.`+J X   E `+`+D E `+b b 8 7 Y n B ' , Y 9 # 9 % |.s.s.|.q.V+",
"a.s+Q+5.[.|.f.f.2.1.8.f.f.8.1.2.2.3.2.8.}.|.s.|.b.8.a.6.5.1.2.6.$ + . * i 7 7 ; 7 @ % + * % $ $ , ' > l B  @7 .@9 i 1.s.[.6.y.p.",
"8.7.2.c.1.5.f.c.|.[.[.6.6.[.[.|.}.d.}.8.}.8.a.8.,+2.1.}.d.8.2.|.7 i % * # ; 9 9 % # i i # + - 0 m m > { B +@*   A & 5.7.7.7.E.k.",
"1+7.s.'+7.O+d.'+|.[.c.[.[.c.[.|.'+8.c.c.f.f.2.1+*+3.2.5.1+|.2.[.  9 $ + * $ i @ # ; z 9 $ . = = ' ' n ' Y S+0 i d & 2.f.5.|.q.r.",
"t+5.[.a.}.u+5.s.2.|.[.c.c.[.|.2.u.[.s.c.f.5.7.u+4.u+5.3.s+6.2.s.@ # * + + + * % @ 9 ; % 0 0 + @ Y H G > Y H k i f % a.}.d.|.o.l.",
"f.f.2.c.a.c.[.s.f.}.|.[.[.|.}.f.6.5.6.[.2.8.a.8.4.t+3.5.d.6.2.a.. + $ # # % * * . % $ . & & . i G Y U+' ^ ' g 9 c + [.d.t+f.p.y.",
"2.5.3.6.a.;+a.8.}.7.6.[.[.6.7.}.|.f.|.[.2.8.a.8.g.X+f.2.7.6.}.a.- * @ 7 7 ; i # 0 * 9 X 9 # % * S+^ > { ) ] h X F - }.1+u+7.r.r.",
"7.7.7.}.|.1.1.|.1.6.8.a.a.8.6.1.0.1.c.s.}.}.|.5.>+1+2.[.6.|.f.c.. $ 9 z 9 @ @ @ + i X D E z # . B ~ , { ) ] g E = . f.5.f.6.m.B.",
"2.c.'+[.2.2.[.'+a.1.c.;+;+c.1.a.s.K+[.@@2.K+[.I+&+H+8.#@1.E+5.L++ N @ T # N # T $ N # T ; ` + j # ) ^ m , ~ & y @ . 3.f.7.}.[.q+",
"0.u.q+q+u.4.>+=+q+|+*+*+g.|+*+>+V.d+S.A+y+$@%@W.&@*@Y.*@y+7+=@A+z+o+=@`.S.Z.-@7+-@`.z+U.&@o+&@L.C b ).C E 8 '.C `+E J   J   z 9 ",
"}.2.2.f.3.3.7.6.6.6.2.6.6.|.|.G+K+;@<+5+e+8+]+^+/+^+_+<+7+4+d+/+T.0+f+6+j+j+~+5+~+f+d+j+.+j+d+6+D = a + % i # & % - g F h a 0 - ",
"c.s.s.[.8.|.1.c.|.2.}.7.}.2.2.I+x+^+0+~+]+6+/+]+8+]+^+<+.+j+]+>@j+6+8+8+~+8+]+(+5+5+/+~+d+d+<+]+y = k . # 9 i k i % = - . % # i ",
"2.6.8.1.[.c.s.a.a.'+'+s.1.8.c.#@X._+6+<+]+6+/+]+j+T.n+c+j+8+]+_+6+6+6+d+d+~+]+(+d+~+9+~+0+j+f+/+@ 0 j % = . $ . - . % ; z 7 i * ",
"5.f.}.|.[.c.c.c.6.c.'+[.f.3.6.x+x+:+~+/+]+0+<+/+/+~+d+d+f+~+6+j+<+~+0+.+.+6+5+e+T.6+5+]+<+~+8+/+i & - # % $ ; $ j = % ; 7 9 # + ",
"[.[.s.'+;+;+a.[.5.2.8.}.u+X+f.L+y+5+d+f+~+o+.+0+f+5+e+_+8+0+d+f+6+0+7+4+T.0+8+/+d+9+e+,@(+_+]+]+8 j a # X D J + 9 @ # # @ 9 7 9 ",
"[.1.[.s.a.c.6.f.[.1.8.6.2.|.[.#@X.(+9+]+]+.+~+9+T.0+~+9+<+~+~+8+T.T.7+0+f+~+8+~+~+9+]+_+_+5+<+~+z a k * i ; i & 7 @ % * % # # # ",
"u.u.q+|+*+|+'+1.*+;+[.c.;+g.|+=@V./+6+8+8+n+0+f+8+T.U.T.5+:+~+o+T.j+8+_+{+{+_+5+6+d+d+d+d+j+T.n+`+  b '.  9 8 E D D D `+y E X ; ",
"[.s.|.a.2.g.7.D+q+|+e.,+e.4.;+ +z+`.4+.+c+U.o+j+4+j+d+4+W.A+j+]+6+<+9+<+9+9+6+4+'@_+^+]+9+7+d+j+% * % $ * j 0 . ; 0 k * % 0 j @ ",
"1.1.}.8.7.u.3.*+P+k+d.7.f.5.5.I+)@^+_+^+<+0+f+5+d+4+`.T.<+_+]+<+6+~+~+f+<+]+]+<+4+!@(+^+5+0+8+6+i % * # # * * # ; = & + # * * @ ",
"[.|.7.2.2.0.d.u.Y+s+2.8.|.|.[.#@K+~+f+6+T.`.o+.+6+7+T.8+;@>@:+f+]+5+8+0+0+8+<+f+n+e+~+d+6+7+6+7+; + - * # # $ i i . 0 0 + % + - ",
"s.|.6.7.1.'+3.0.k+7.[.[.6.6.8.L+G+f+~+~+d+T.7+d+j+/+;@~@{+5+8+~+/+9+6+7+7+d+6+j+c+e+~+f+5+<+]+6+  # = % @ ; @ @ @ $ - & - % = A ",
"c.}.1.5.c.[.3.'+t+7.1.6.f.f.f.H+I+9+/+^+5+f+d+~+f+{+{@]@e+6+0+~+4+.+.+.+6+/+5+<+W./+j+0+9+6+f+c+b z # @ z z 9 9 i # + - + i % 0 ",
"2.3.c.1+[.}.d.a.s+6.1.2.}.|.2.^@F+~+~+<+~+j+T..+5+:+,@,@e+5+8+f+j+6+f+f+<+]+5+~+W./+.+7+d+4+c+$@E 9 # @ 9 @ # i . = - . * % % * ",
"f.d.0.1+s.5.5.u.3.|.|.f.7.8.7./@(@8+6+f+f+d+6+<+8+~+f+f+~+8+<+<+5+]+5+8+8+<+f+7+j+_@5+8+<+0+6+4+z ; @ 9 9 i # ; # + % 9 @ . + ; ",
"f.3.|+5.0.5.2.g.|+,+e.;+q+e.0.)@x+`.*@W.`.n+j+8+c+.+j+c+A+`.d+]+8+<+8+6+f+<+8+d+*@<+c+A+`.*@o+A+J   8 y D J J `+.@E `+).D % $ E "};
