/* XPM */
static char * doom_south[] = {
"64 64 256 2",
"  	c #000000",
". 	c #0000FF",
"+ 	c #00FF00",
"@ 	c #FF0000",
"# 	c #00FFFF",
"$ 	c #FFFF00",
"% 	c #FF00FF",
"& 	c #FFFFFF",
"* 	c #7B7B7B",
"= 	c #7B7B7B",
"- 	c #7B7B7B",
"; 	c #7B7B7B",
"> 	c #7B7B7B",
", 	c #7B7B7B",
"' 	c #7B7B7B",
") 	c #7B7B7B",
"! 	c #7B7B7B",
"~ 	c #7B7B7B",
"{ 	c #7B7B7B",
"] 	c #7B7B7B",
"^ 	c #7B7B7B",
"/ 	c #7B7B7B",
"( 	c #7B7B7B",
"_ 	c #7B7B7B",
": 	c #7B7B7B",
"< 	c #7B7B7B",
"[ 	c #7B7B7B",
"} 	c #7B7B7B",
"| 	c #7B7B7B",
"1 	c #7B7B7B",
"2 	c #7B7B7B",
"3 	c #7B7B7B",
"4 	c #7B7B7B",
"5 	c #7B7B7B",
"6 	c #7B7B7B",
"7 	c #7B7B7B",
"8 	c #7B7B7B",
"9 	c #7B7B7B",
"0 	c #7B7B7B",
"a 	c #7B7B7B",
"b 	c #7B7B7B",
"c 	c #7B7B7B",
"d 	c #7B7B7B",
"e 	c #7B7B7B",
"f 	c #7B7B7B",
"g 	c #7B7B7B",
"h 	c #7B7B7B",
"i 	c #7B7B7B",
"j 	c #7B7B7B",
"k 	c #7B7B7B",
"l 	c #7B7B7B",
"m 	c #7B7B7B",
"n 	c #7B7B7B",
"o 	c #7B7B7B",
"p 	c #7B7B7B",
"q 	c #7B7B7B",
"r 	c #7B7B7B",
"s 	c #7B7B7B",
"t 	c #7B7B7B",
"u 	c #7B7B7B",
"v 	c #7B7B7B",
"w 	c #7B7B7B",
"x 	c #7B7B7B",
"y 	c #7B7B7B",
"z 	c #7B7B7B",
"A 	c #7B7B7B",
"B 	c #7B7B7B",
"C 	c #7B7B7B",
"D 	c #7B7B7B",
"E 	c #7B7B7B",
"F 	c #7B7B7B",
"G 	c #7B7B7B",
"H 	c #7B7B7B",
"I 	c #7B7B7B",
"J 	c #7B7B7B",
"K 	c #7B7B7B",
"L 	c #7B7B7B",
"M 	c #7B7B7B",
"N 	c #7B7B7B",
"O 	c #7B7B7B",
"P 	c #7B7B7B",
"Q 	c #7B7B7B",
"R 	c #7B7B7B",
"S 	c #7B7B7B",
"T 	c #7B7B7B",
"U 	c #7B7B7B",
"V 	c #7B7B7B",
"W 	c #7B7B7B",
"X 	c #7B7B7B",
"Y 	c #7B7B7B",
"Z 	c #7B7B7B",
"` 	c #7B7B7B",
" .	c #7B7B7B",
"..	c #7B7B7B",
"+.	c #7B7B7B",
"@.	c #7B7B7B",
"#.	c #7B7B7B",
"$.	c #7B7B7B",
"%.	c #7B7B7B",
"&.	c #7B7B7B",
"*.	c #7B7B7B",
"=.	c #7B7B7B",
"-.	c #7B7B7B",
";.	c #7B7B7B",
">.	c #7B7B7B",
",.	c #7B7B7B",
"'.	c #7B7B7B",
").	c #7B7B7B",
"!.	c #7B7B7B",
"~.	c #7B7B7B",
"{.	c #7B7B7B",
"].	c #7B7B7B",
"^.	c #7B7B7B",
"/.	c #7B7B7B",
"(.	c #7B7B7B",
"_.	c #7B7B7B",
":.	c #7B7B7B",
"<.	c #7B7B7B",
"[.	c #7B7B7B",
"}.	c #7B7B7B",
"|.	c #7B7B7B",
"1.	c #7B7B7B",
"2.	c #7B7B7B",
"3.	c #7B7B7B",
"4.	c #7B7B7B",
"5.	c #7B7B7B",
"6.	c #7B7B7B",
"7.	c #7B7B7B",
"8.	c #7B7B7B",
"9.	c #7B7B7B",
"0.	c #7B7B7B",
"a.	c #7B7B7B",
"b.	c #7B7B7B",
"c.	c #7B7B7B",
"d.	c #7B7B7B",
"e.	c #7B7B7B",
"f.	c #7B7B7B",
"g.	c #7B7B7B",
"h.	c #7B7B7B",
"i.	c #7B7B7B",
"j.	c #7B7B7B",
"k.	c #7B7B7B",
"l.	c #7B7B7B",
"m.	c #7B7B7B",
"n.	c #7B7B7B",
"o.	c #7B7B7B",
"p.	c #7B7B7B",
"q.	c #7B7B7B",
"r.	c #7B7B7B",
"s.	c #7B7B7B",
"t.	c #7B7B7B",
"u.	c #7B7B7B",
"v.	c #7B7B7B",
"w.	c #7B7B7B",
"x.	c #7B7B7B",
"y.	c #7B7B7B",
"z.	c #7B7B7B",
"A.	c #7B7B7B",
"B.	c #7B7B7B",
"C.	c #7B7B7B",
"D.	c #7B7B7B",
"E.	c #7B7B7B",
"F.	c #7B7B7B",
"G.	c #7B7B7B",
"H.	c #7B7B7B",
"I.	c #7B7B7B",
"J.	c #7B7B7B",
"K.	c #7B7B7B",
"L.	c #7B7B7B",
"M.	c #7B7B7B",
"N.	c #7B7B7B",
"O.	c #7B7B7B",
"P.	c #7B7B7B",
"Q.	c #7B7B7B",
"R.	c #7B7B7B",
"S.	c #7B7B7B",
"T.	c #7B7B7B",
"U.	c #7B7B7B",
"V.	c #7B7B7B",
"W.	c #7B7B7B",
"X.	c #7B7B7B",
"Y.	c #7B7B7B",
"Z.	c #7B7B7B",
"`.	c #7B7B7B",
" +	c #7B7B7B",
".+	c #7B7B7B",
"++	c #7B7B7B",
"@+	c #7B7B7B",
"#+	c #7B7B7B",
"$+	c #7B7B7B",
"%+	c #7B7B7B",
"&+	c #7B7B7B",
"*+	c #7B7B7B",
"=+	c #7B7B7B",
"-+	c #7B7B7B",
";+	c #7B7B7B",
">+	c #7B7B7B",
",+	c #7B7B7B",
"'+	c #7B7B7B",
")+	c #7B7B7B",
"!+	c #7B7B7B",
"~+	c #7B7B7B",
"{+	c #7B7B7B",
"]+	c #7B7B7B",
"^+	c #7B7B7B",
"/+	c #7B7B7B",
"(+	c #7B7B7B",
"_+	c #7B7B7B",
":+	c #7B7B7B",
"<+	c #7B7B7B",
"[+	c #7B7B7B",
"}+	c #7B7B7B",
"|+	c #7B7B7B",
"1+	c #7B7B7B",
"2+	c #7B7B7B",
"3+	c #7B7B7B",
"4+	c #7B7B7B",
"5+	c #7B7B7B",
"6+	c #7B7B7B",
"7+	c #7B7B7B",
"8+	c #7B7B7B",
"9+	c #7B7B7B",
"0+	c #7B7B7B",
"a+	c #7B7B7B",
"b+	c #7B7B7B",
"c+	c #7B7B7B",
"d+	c #7B7B7B",
"e+	c #7B7B7B",
"f+	c #7B7B7B",
"g+	c #7B7B7B",
"h+	c #7B7B7B",
"i+	c #6A4120",
"j+	c #735A39",
"k+	c #392918",
"l+	c #5A4120",
"m+	c #4A3929",
"n+	c #5A4A31",
"o+	c #4A3118",
"p+	c #6A5241",
"q+	c #4A3920",
"r+	c #7B5229",
"s+	c #524131",
"t+	c #5A4129",
"u+	c #523929",
"v+	c #625239",
"w+	c #413120",
"x+	c #625231",
"y+	c #735A4A",
"z+	c #412918",
"A+	c #523918",
"B+	c #835231",
"C+	c #292008",
"D+	c #413118",
"E+	c #8B735A",
"F+	c #7B624A",
"G+	c #836A4A",
"w+q+q+q+w+z+n+F+t+t+n+n+n+n+t+s+t+q+q+s+q+s+u+l+t+t+t+s+s+u+s+n+p+F+n+u+w+k+k+D+u+u+w+z+z+w+k+z+k+D+s+n+p+F+F+F+p+p+F+p+p+p+p+p+",
"p+w+z+z+q+n+p+p+s+n+n+n+n+t+n+t+s+q+q+t+s+s+t+l+t+t+t+t+t+q+s+p+p+p+p+p+n+s+w+k+z+k+z+z+w+z+z+k+q+D+s+t+q+t+t+s+q+p+p+p+p+n+p+p+",
"p+p+p+p+p+F+p+n+t+n+n+t+s+t+s+s+u+l+q+s+s+s+t+l+s+n+t+t+u+s+F+p+p+t+t+n+s+s+l+u+q+z+k+k+z+D+D+s+D+s+s+q+q+q+n+n+n+n+p+n+n+n+n+n+",
"t+p+p+p+p+F+n+n+t+n+t+t+t+t+t+t+u+q+q+s+s+s+s+u+s+t+u+w+s+F+p+t+t+s+q+q+l+s+u+l+n+s+q+w+D+s+s+D+n+n+n+n+t+n+n+u+t+t+l+l+n+n+l+l+",
"w+t+B+n+p+p+q+s+s+s+t+u+s+t+n+t+s+q+n+s+s+u+l+q+w+z+l+s+p+F+q+s+w+q+l+i+l+i+q+q+w+p+p+n+n+s+D+n+t+n+x+u+n+s+n+s+s+n+n+t+n+l+l+l+",
"l+n+t+p+p+p+q+t+t+s+s+s+t+t+n+t+s+s+t+t+u+q+q+z+z+s+p+p+F+n+s+l+q+q+i+l+q+l+w+z+w+p+F+p+s+D+s+u+l+n+l+l+l+l+l+l+l+l+l+l+n+l+n+l+",
"l+l+n+t+p+n+D+q+t+s+s+t+t+n+n+t+s+u+s+u+q+w+z+u+p+F+p+p+F+n+q+l+i+q+q+s+u+z+z+z+w+p+F+F+D+u+u+t+t+l+n+t+q+l+l+l+l+l+l+t+n+n+n+l+",
"l+l+n+l+t+p+n+D+q+t+s+t+t+n+n+t+s+u+q+D+z+u+t+p+F+p+s+s+p+F+n+l+q+q+q+l+w+z+z+w+s+p+F+p+D+t+l+l+l+l+n+l+l+l+t+l+l+l+l+n+l+t+t+l+",
"t+t+n+t+s+u+F+n+D+q+u+t+n+n+n+t+t+q+q+w+s+p+F+p+q+s+t+x+t+s+F+n+D+q+z+q+u+z+w+s+n+F+F+p+q+l+l+l+t+s+n+t+t+l+t+l+l+l+l+l+n+t+t+l+",
"t+l+l+t+t+s+F+F+n+D+s+t+t+t+t+l+l+w+n+p+F+F+t+t+t+t+t+t+x+x+q+F+n+D+D+D+D+D+s+n+F+F+F+p+u+l+l+l+s+l+l+t+n+t+t+t+l+l+t+l+t+t+t+t+",
"l+l+l+n+t+s+F+j+F+s+D+w+l+u+q+w+w+s+F+F+F+q+s+u+t+t+t+i+i+x+q+q+q+s+n+n+n+n+F+F+F+F+F+n+s+l+q+l+t+l+l+n+n+t+t+t+t+l+l+l+t+t+l+l+",
"l+q+t+t+q+l+j+j+p+p+p+s+w+w+w+s+p+p+F+F+q+s+u+q+l+q+i+i+i+t+x+x+t+l+i+i+w+q+n+p+F+F+F+n+s+l+l+l+l+q+t+n+l+l+t+s+q+l+t+t+l+l+l+l+",
"w+l+l+t+q+D+p+n+t+q+t+u+n+p+E+G+j+j+p+n+t+t+q+q+u+l+l+i+l+l+l+q+s+l+i+t+t+x+w+n+n+p+F+s+s+l+l+z+w+l+l+t+u+l+l+q+w+w+s+q+q+l+t+l+",
"t+l+l+q+k+s+p+t+z+u+q+u+q+n+F+G+j+j+n+t+x+t+q+q+u+q+l+t+s+s+s+q+s+l+t+l+q+t+x+w+s+p+F+n+s+l+w+q+t+l+l+l+u+w+w+w+z+l+w+q+q+q+l+l+",
"l+t+q+z+n+n+s+u+q+z+z+q+l+q+n+p+p+n+t+x+t+q+q+q+q+q+q+l+s+l+i+l+q+q+t+t+q+t+t+w+s+p+p+n+u+q+q+l+t+n+t+l+u+w+z+w+w+z+z+w+l+q+w+l+",
"t+l+z+n+p+p+u+u+u+u+u+t+q+z+w+p+p+s+w+t+t+w+w+q+q+q+q+q+s+q+q+l+q+q+s+l+q+w+t+w+n+p+p+n+q+w+l+l+t+l+l+l+u+w+z+u+l+l+q+t+q+z+w+l+",
"l+D+n+F+p+p+w+w+u+u+t+t+q+l+q+q+n+s+q+l+q+q+q+w+q+q+q+l+q+s+q+q+q+q+q+l+w+w+q+D+n+p+n+u+z+w+l+l+l+l+l+i+l+u+u+l+l+l+l+t+l+l+l+q+",
"D+n+n+t+w+t+s+D+u+t+t+l+q+u+t+n+n+s+q+u+l+q+l+q+q+q+l+q+q+s+q+q+q+q+q+l+l+w+D+n+n+s+s+D+w+D+l+l+l+l+l+i+u+u+u+l+l+t+n+l+l+q+q+q+",
"n+n+t+t+u+l+s+s+t+n+u+q+q+t+t+t+n+D+u+u+q+q+l+q+q+q+q+q+q+l+l+q+u+q+q+u+q+k+n+n+s+s+u+u+z+D+q+l+l+l+i+l+l+l+l+l+n+n+l+l+q+q+q+D+",
"n+l+u+q+t+u+q+n+q+q+l+l+q+t+t+t+n+s+u+u+l+q+t+l+l+q+q+q+t+q+l+w+l+u+q+q+k+n+n+s+s+s+t+n+s+D+D+q+l+l+l+l+s+l+l+l+t+l+l+l+q+q+D+n+",
"q+u+t+s+q+q+q+n+n+q+q+u+q+t+t+t+l+n+D+u+q+q+q+l+t+q+w+w+w+q+D+D+D+w+k+k+t+n+s+u+q+q+t+n+n+s+z+z+q+q+l+l+l+l+l+l+u+l+q+q+q+q+n+n+",
"u+t+t+l+q+q+q+q+F+n+q+q+w+u+t+u+l+p+s+D+q+q+l+l+s+l+q+w+w+w+z+z+k+k+D+t+n+p+p+n+n+n+s+p+j+j+t+z+D+q+l+q+l+l+q+w+u+u+u+q+D+s+p+q+",
"t+t+l+l+l+q+u+w+n+x+q+q+q+u+u+u+u+n+n+D+w+q+l+l+l+q+q+w+q+w+z+z+q+q+n+u+u+u+u+t+t+q+n+n+j+E+j+n+z+D+q+q+l+l+u+w+q+u+q+q+n+p+q+u+",
"l+l+l+t+l+l+l+q+n+F+n+D+q+t+t+l+D+n+p+n+z+w+q+q+q+q+l+w+z+z+q+s+n+n+s+s+q+q+q+w+l+D+q+p+F+F+G+p+n+k+D+q+q+q+l+q+q+q+l+n+p+l+t+s+",
"q+q+q+q+q+l+l+s+q+x+F+n+q+q+t+s+D+n+p+n+n+z+w+l+l+q+D+z+w+s+n+p+n+u+s+s+w+D+w+w+l+l+q+u+p+F+F+p+p+s+k+D+w+q+l+l+q+l+n+p+n+n+t+s+",
"w+q+q+q+t+q+u+l+q+n+p+n+D+q+q+z+s+j+F+p+p+n+D+w+w+D+k+w+s+n+p+n+u+q+s+s+D+D+w+q+l+q+q+D+n+p+p+t+q+p+s+k+z+w+u+q+q+n+p+n+l+t+t+i+",
"q+q+u+q+q+l+q+t+q+u+n+x+n+D+z+s+j+p+p+p+p+F+q+D+k+k+q+n+p+p+p+u+q+q+s+s+q+q+D+q+z+z+q+q+s+p+n+q+q+q+p+s+D+k+w+w+n+p+t+q+u+l+t+t+",
"z+z+u+q+w+q+q+q+D+q+p+x+x+p+p+j+F+n+u+u+n+p+F+q+p+p+p+p+p+p+p+q+w+q+s+s+q+w+z+z+z+z+z+u+n+p+t+q+D+D+u+p+n+s+s+n+p+p+q+q+q+t+t+t+",
"z+z+z+q+q+q+w+q+q+s+F+p+j+j+j+p+n+u+s+s+s+t+p+F+F+F+p+p+p+p+p+n+D+D+s+s+w+k+D+z+z+z+q+q+n+n+q+l+D+D+q+t+p+p+p+p+p+p+t+q+l+l+t+t+",
"l+q+q+w+z+q+q+q+q+l+p+n+p+j+p+D+u+u+u+s+s+s+t+F+F+p+p+n+n+n+E+p+n+q+s+s+z+k+q+D+w+q+l+n+n+s+q+q+q+q+q+D+u+p+p+n+n+t+t+q+q+l+u+u+",
"q+z+t+q+w+D+q+q+z+u+p+p+n+n+p+s+D+s+s+s+s+s+l+p+p+p+u+s+t+u+w+E+n+n+t+t+w+z+q+l+q+q+D+p+p+p+s+s+s+s+s+s+s+p+p+s+t+q+u+w+w+u+u+u+",
"q+q+l+l+q+q+q+D+w+D+n+n+s+u+n+F+p+q+s+n+u+u+z+p+p+t+u+q+t+q+q+D+p+n+s+s+q+l+q+q+l+w+n+t+B+j+p+n+p+p+p+p+p+q+s+p+n+s+q+w+q+u+t+t+",
"q+l+l+l+D+w+q+q+D+t+n+n+t+x+t+n+F+p+s+q+z+z+q+n+u+u+q+q+t+q+q+q+w+p+n+p+q+q+q+w+q+k+p+n+n+p+s+u+s+t+t+t+s+q+s+t+s+n+q+q+l+s+s+l+",
"l+q+l+l+q+u+q+D+t+t+s+q+s+u+t+t+p+p+F+n+q+q+p+p+u+q+w+q+u+t+q+q+w+q+l+n+n+q+q+w+D+p+p+n+n+n+s+u+t+s+t+t+t+t+t+s+q+t+u+w+q+u+t+s+",
"l+q+l+s+q+q+q+n+s+p+u+s+u+u+t+t+t+p+F+G+p+p+p+t+t+q+q+q+s+t+q+q+w+z+i+n+n+p+n+n+n+n+n+p+s+n+s+u+t+s+t+n+t+s+t+s+u+n+u+q+q+q+l+t+",
"t+i+t+w+q+D+s+s+p+n+t+n+t+t+t+u+l+u+p+p+F+G+G+t+u+u+u+q+t+l+t+u+w+z+l+s+z+n+p+p+p+p+n+p+s+n+s+s+t+t+t+s+t+q+s+s+u+n+q+q+l+t+l+q+",
"s+l+q+q+l+u+n+p+F+p+p+n+u+t+u+l+i+l+t+n+F+E+F+l+u+u+u+t+u+t+q+w+D+D+q+q+z+z+n+p+p+F+n+p+s+n+s+s+n+t+s+n+t+z+s+t+t+n+q+l+q+i+q+i+",
"l+q+q+q+n+s+p+F+p+t+p+p+n+t+q+t+l+l+u+u+s+E+F+n+u+u+u+t+u+l+q+D+D+z+s+l+q+q+w+n+F+p+n+p+s+n+s+u+t+s+s+t+s+w+s+t+n+n+i+l+l+l+w+l+",
"q+q+q+t+s+n+p+n+n+p+p+p+p+n+u+t+u+u+q+u+u+s+p+j+u+u+u+t+u+l+q+q+q+q+q+q+q+w+k+n+F+p+n+p+s+p+s+s+s+s+t+t+s+u+s+s+n+p+F+x+l+u+q+l+",
"q+D+t+p+p+p+p+s+u+n+t+p+p+t+t+t+t+t+u+q+u+u+p+p+l+u+u+t+t+q+s+w+q+q+q+q+w+z+D+j+p+p+s+p+n+F+s+s+s+s+t+n+s+s+s+s+q+p+p+F+n+q+u+q+",
"q+n+n+p+p+p+n+q+u+t+t+t+n+t+t+u+t+u+t+D+u+u+s+p+n+D+u+q+u+u+l+u+u+u+q+w+w+k+u+F+n+n+n+p+F+p+s+s+t+t+s+u+s+s+s+u+q+n+F+p+p+t+u+D+",
"s+s+F+F+p+t+u+t+s+u+t+t+x+u+t+t+q+t+u+q+q+u+s+s+p+s+D+u+u+l+t+u+u+q+q+w+w+D+s+F+u+n+s+p+p+p+s+s+s+s+t+t+s+u+s+t+i+n+t+t+t+t+p+n+",
"s+s+p+F+j+u+s+u+t+n+n+t+u+u+t+s+z+u+u+q+D+u+t+t+s+p+s+k+u+q+l+l+q+q+w+w+k+q+n+F+n+s+s+n+p+n+t+n+s+t+t+t+s+s+t+s+t+n+D+t+n+s+l+u+",
"u+t+p+G+p+t+t+t+n+x+n+q+q+u+t+q+s+u+u+q+q+u+u+t+t+s+p+D+D+q+q+q+q+q+w+z+k+l+p+p+n+s+s+s+p+s+t+t+t+t+t+n+t+t+t+t+q+p+D+s+u+s+z+k+",
"u+q+l+F+t+u+u+u+n+x+x+q+q+q+u+t+u+q+t+q+q+q+u+u+u+q+p+s+D+D+q+q+w+D+w+z+w+n+F+p+q+t+s+s+n+s+s+t+t+s+t+n+t+u+s+s+q+p+D+t+t+s+C+w+",
"s+l+D+p+n+t+u+s+n+n+q+u+q+u+u+u+u+u+u+q+D+q+u+q+q+z+s+p+n+k+D+D+z+D+z+k+s+p+F+F+n+q+s+s+s+n+s+n+s+s+n+t+t+t+s+t+q+n+D+t+t+s+C+z+",
"t+D+n+n+t+t+u+t+u+u+q+s+u+u+u+u+u+q+t+l+q+q+u+z+D+n+n+p+p+s+D+k+D+q+z+z+s+p+p+p+p+n+D+q+s+t+s+n+s+s+s+t+t+t+s+t+q+n+D+t+n+t+z+z+",
"q+s+n+n+D+u+u+s+s+q+q+u+u+s+u+s+u+s+t+l+q+q+q+D+w+p+p+w+q+q+u+q+k+k+z+u+n+p+n+q+u+t+t+q+D+q+p+n+t+s+s+u+u+s+u+q+D+s+D+t+n+t+z+z+",
"n+n+p+p+n+q+t+s+s+u+u+s+s+t+s+t+u+l+t+t+q+q+q+q+p+s+w+q+q+q+q+n+q+q+u+n+p+s+s+s+s+s+t+n+s+D+q+t+t+q+s+t+t+t+q+D+n+t+D+D+D+D+k+s+",
"p+p+p+F+F+n+D+q+t+u+s+t+s+t+t+t+u+s+t+l+l+q+q+p+n+q+q+z+q+D+q+D+q+p+p+p+s+q+s+s+t+t+s+s+p+t+D+q+s+s+s+t+i+l+D+n+p+p+p+l+q+q+s+n+",
"p+p+F+F+F+F+n+D+q+q+s+t+t+t+n+n+s+l+t+q+q+q+p+p+l+u+q+w+q+D+q+D+q+w+p+p+s+q+s+s+t+t+q+q+t+n+n+z+D+u+u+l+l+q+s+u+n+q+u+t+t+n+F+F+",
"n+u+n+n+p+p+p+s+q+D+q+t+t+n+p+n+l+l+s+q+D+p+p+t+u+q+q+q+q+q+q+D+w+D+n+n+n+u+s+s+t+t+i+z+q+t+p+t+z+D+q+q+D+s+s+u+t+u+u+t+t+t+B+F+",
"u+s+q+s+n+n+p+p+p+s+D+s+t+n+n+i+s+t+q+D+p+p+s+t+s+q+l+q+q+q+q+l+w+D+p+q+s+w+t+t+t+t+q+u+q+q+t+n+s+q+w+D+n+p+u+u+u+l+u+t+t+t+p+F+",
"s+u+u+u+s+t+n+n+p+p+s+s+t+n+t+i+u+q+D+p+l+s+t+q+l+l+q+w+q+q+l+q+w+n+s+z+q+q+s+s+t+x+q+u+q+w+w+t+p+n+t+t+p+n+l+l+q+u+u+t+t+t+p+F+",
"s+u+s+s+s+s+s+s+n+p+p+s+D+t+i+l+q+D+p+l+t+t+t+q+s+s+s+l+s+l+l+u+q+n+q+z+t+s+s+s+t+t+s+q+q+q+l+s+n+p+p+p+p+u+l+q+u+t+t+t+l+t+B+p+",
"t+s+s+s+s+t+t+u+s+n+p+p+s+q+D+D+q+p+i+u+s+u+q+l+s+t+t+q+l+l+l+q+s+n+q+l+l+l+l+l+s+s+s+q+u+q+q+s+q+n+p+F+n+t+t+u+u+u+t+l+s+t+n+n+",
"s+s+u+u+s+t+s+u+s+q+t+p+p+s+q+s+n+q+u+t+s+u+q+q+s+t+t+u+s+q+q+q+n+q+q+s+s+s+i+q+q+q+q+q+q+q+l+s+q+D+n+n+l+l+u+u+u+u+t+q+l+l+n+t+",
"t+u+t+u+t+s+t+u+s+q+t+l+p+p+p+n+i+u+q+u+s+q+q+l+s+t+t+l+s+q+q+s+l+z+l+s+t+q+l+s+t+l+i+z+q+u+l+t+q+l+q+n+s+D+l+u+u+u+l+l+s+B+p+s+",
"s+s+s+t+s+s+t+q+u+q+l+t+p+p+p+p+t+q+q+u+s+q+u+l+t+t+t+D+q+q+q+s+q+D+q+s+t+q+q+q+s+l+i+q+q+q+s+s+q+l+q+q+s+n+q+u+u+l+l+t+n+B+n+s+",
"s+s+s+t+s+s+t+l+q+l+q+l+p+F+p+t+s+q+q+t+s+q+q+s+s+t+x+t+l+s+q+s+w+q+l+s+t+s+s+l+q+q+q+q+q+q+s+s+s+q+l+w+s+s+q+l+l+s+t+s+n+p+t+t+",
"t+t+s+t+s+t+u+q+w+q+l+p+F+p+t+t+q+q+q+u+t+q+q+s+s+t+t+u+u+t+q+q+u+q+l+t+t+l+q+q+q+s+s+t+i+q+q+q+l+q+s+w+s+p+s+D+q+t+t+q+n+s+t+t+",
"n+t+s+s+t+t+q+q+q+q+F+p+p+t+t+t+s+q+q+u+s+q+q+s+l+s+s+q+l+t+q+z+D+q+s+s+t+s+q+s+t+s+l+s+q+s+s+s+D+s+s+z+s+F+p+n+u+q+q+n+n+t+t+t+",
"t+n+t+s+s+u+q+w+q+p+p+t+n+n+n+t+t+q+q+u+s+q+q+l+t+t+q+l+u+t+q+w+C+D+s+s+t+i+q+q+l+l+t+t+q+i+q+l+q+s+k+k+n+F+F+p+s+q+n+n+s+q+n+t+",
"t+t+t+s+u+w+w+u+F+p+n+n+n+n+n+t+n+l+q+u+q+q+q+l+l+q+u+q+u+t+s+n+s+w+z+D+D+z+q+q+s+l+l+q+q+q+q+q+u+k+z+D+p+F+F+p+p+p+p+F+p+n+t+q+"};
