/* XPM */
static char * doom_west[] = {
"64 64 256 2",
"  	c #000000",
". 	c #0000FF",
"+ 	c #00FF00",
"@ 	c #FF0000",
"# 	c #00FFFF",
"$ 	c #FFFF00",
"% 	c #FF00FF",
"& 	c #FFFFFF",
"* 	c #7B7B7B",
"= 	c #7B7B7B",
"- 	c #7B7B7B",
"; 	c #7B7B7B",
"> 	c #7B7B7B",
", 	c #7B7B7B",
"' 	c #7B7B7B",
") 	c #7B7B7B",
"! 	c #7B7B7B",
"~ 	c #7B7B7B",
"{ 	c #7B7B7B",
"] 	c #7B7B7B",
"^ 	c #7B7B7B",
"/ 	c #7B7B7B",
"( 	c #7B7B7B",
"_ 	c #7B7B7B",
": 	c #7B7B7B",
"< 	c #7B7B7B",
"[ 	c #7B7B7B",
"} 	c #7B7B7B",
"| 	c #7B7B7B",
"1 	c #7B7B7B",
"2 	c #7B7B7B",
"3 	c #7B7B7B",
"4 	c #7B7B7B",
"5 	c #7B7B7B",
"6 	c #7B7B7B",
"7 	c #7B7B7B",
"8 	c #7B7B7B",
"9 	c #7B7B7B",
"0 	c #7B7B7B",
"a 	c #7B7B7B",
"b 	c #7B7B7B",
"c 	c #7B7B7B",
"d 	c #7B7B7B",
"e 	c #7B7B7B",
"f 	c #7B7B7B",
"g 	c #7B7B7B",
"h 	c #7B7B7B",
"i 	c #7B7B7B",
"j 	c #7B7B7B",
"k 	c #7B7B7B",
"l 	c #7B7B7B",
"m 	c #7B7B7B",
"n 	c #7B7B7B",
"o 	c #7B7B7B",
"p 	c #7B7B7B",
"q 	c #7B7B7B",
"r 	c #7B7B7B",
"s 	c #7B7B7B",
"t 	c #7B7B7B",
"u 	c #7B7B7B",
"v 	c #7B7B7B",
"w 	c #7B7B7B",
"x 	c #7B7B7B",
"y 	c #7B7B7B",
"z 	c #7B7B7B",
"A 	c #7B7B7B",
"B 	c #7B7B7B",
"C 	c #7B7B7B",
"D 	c #7B7B7B",
"E 	c #7B7B7B",
"F 	c #7B7B7B",
"G 	c #7B7B7B",
"H 	c #7B7B7B",
"I 	c #7B7B7B",
"J 	c #7B7B7B",
"K 	c #7B7B7B",
"L 	c #7B7B7B",
"M 	c #7B7B7B",
"N 	c #7B7B7B",
"O 	c #7B7B7B",
"P 	c #7B7B7B",
"Q 	c #7B7B7B",
"R 	c #7B7B7B",
"S 	c #7B7B7B",
"T 	c #7B7B7B",
"U 	c #7B7B7B",
"V 	c #7B7B7B",
"W 	c #7B7B7B",
"X 	c #7B7B7B",
"Y 	c #7B7B7B",
"Z 	c #7B7B7B",
"` 	c #7B7B7B",
" .	c #7B7B7B",
"..	c #7B7B7B",
"+.	c #7B7B7B",
"@.	c #7B7B7B",
"#.	c #7B7B7B",
"$.	c #7B7B7B",
"%.	c #7B7B7B",
"&.	c #7B7B7B",
"*.	c #7B7B7B",
"=.	c #7B7B7B",
"-.	c #7B7B7B",
";.	c #7B7B7B",
">.	c #7B7B7B",
",.	c #7B7B7B",
"'.	c #7B7B7B",
").	c #7B7B7B",
"!.	c #7B7B7B",
"~.	c #7B7B7B",
"{.	c #7B7B7B",
"].	c #7B7B7B",
"^.	c #7B7B7B",
"/.	c #7B7B7B",
"(.	c #7B7B7B",
"_.	c #7B7B7B",
":.	c #7B7B7B",
"<.	c #7B7B7B",
"[.	c #7B7B7B",
"}.	c #7B7B7B",
"|.	c #7B7B7B",
"1.	c #7B7B7B",
"2.	c #7B7B7B",
"3.	c #7B7B7B",
"4.	c #7B7B7B",
"5.	c #7B7B7B",
"6.	c #7B7B7B",
"7.	c #7B7B7B",
"8.	c #7B7B7B",
"9.	c #7B7B7B",
"0.	c #7B7B7B",
"a.	c #7B7B7B",
"b.	c #7B7B7B",
"c.	c #7B7B7B",
"d.	c #7B7B7B",
"e.	c #7B7B7B",
"f.	c #7B7B7B",
"g.	c #7B7B7B",
"h.	c #7B7B7B",
"i.	c #7B7B7B",
"j.	c #7B7B7B",
"k.	c #7B7B7B",
"l.	c #7B7B7B",
"m.	c #7B7B7B",
"n.	c #7B7B7B",
"o.	c #7B7B7B",
"p.	c #7B7B7B",
"q.	c #7B7B7B",
"r.	c #7B7B7B",
"s.	c #7B7B7B",
"t.	c #7B7B7B",
"u.	c #7B7B7B",
"v.	c #7B7B7B",
"w.	c #7B7B7B",
"x.	c #7B7B7B",
"y.	c #7B7B7B",
"z.	c #7B7B7B",
"A.	c #7B7B7B",
"B.	c #7B7B7B",
"C.	c #7B7B7B",
"D.	c #7B7B7B",
"E.	c #7B7B7B",
"F.	c #7B7B7B",
"G.	c #7B7B7B",
"H.	c #7B7B7B",
"I.	c #7B7B7B",
"J.	c #7B7B7B",
"K.	c #7B7B7B",
"L.	c #7B7B7B",
"M.	c #7B7B7B",
"N.	c #7B7B7B",
"O.	c #7B7B7B",
"P.	c #7B7B7B",
"Q.	c #7B7B7B",
"R.	c #7B7B7B",
"S.	c #7B7B7B",
"T.	c #7B7B7B",
"U.	c #7B7B7B",
"V.	c #7B7B7B",
"W.	c #7B7B7B",
"X.	c #7B7B7B",
"Y.	c #7B7B7B",
"Z.	c #7B7B7B",
"`.	c #7B7B7B",
" +	c #7B7B7B",
".+	c #7B7B7B",
"++	c #7B7B7B",
"@+	c #7B7B7B",
"#+	c #7B7B7B",
"$+	c #7B7B7B",
"%+	c #7B7B7B",
"&+	c #7B7B7B",
"*+	c #7B7B7B",
"=+	c #7B7B7B",
"-+	c #7B7B7B",
";+	c #7B7B7B",
">+	c #7B7B7B",
",+	c #7B7B7B",
"'+	c #7B7B7B",
")+	c #7B7B7B",
"!+	c #7B7B7B",
"~+	c #7B7B7B",
"{+	c #7B7B7B",
"]+	c #7B7B7B",
"^+	c #7B7B7B",
"/+	c #7B7B7B",
"(+	c #7B7B7B",
"_+	c #7B7B7B",
":+	c #7B7B7B",
"<+	c #7B7B7B",
"[+	c #7B7B7B",
"}+	c #7B7B7B",
"|+	c #7B7B7B",
"1+	c #7B7B7B",
"2+	c #7B7B7B",
"3+	c #7B7B7B",
"4+	c #7B7B7B",
"5+	c #7B7B7B",
"6+	c #7B7B7B",
"7+	c #7B7B7B",
"8+	c #7B7B7B",
"9+	c #7B7B7B",
"0+	c #7B7B7B",
"a+	c #7B7B7B",
"b+	c #7B7B7B",
"c+	c #7B7B7B",
"d+	c #7B7B7B",
"e+	c #7B7B7B",
"f+	c #7B7B7B",
"g+	c #7B7B7B",
"h+	c #7B7B7B",
"i+	c #7B7B7B",
"j+	c #7B7B7B",
"k+	c #7B7B7B",
"l+	c #6A5241",
"m+	c #414141",
"n+	c #523918",
"o+	c #7B5229",
"p+	c #412918",
"q+	c #6A4120",
"r+	c #413120",
"s+	c #524131",
"t+	c #414A31",
"u+	c #835231",
"v+	c #312910",
"w+	c #625231",
"x+	c #735A39",
"y+	c #8B5A31",
"z+	c #413118",
"A+	c #836A52",
"B+	c #313920",
"C+	c #5A4120",
"D+	c #523929",
"E+	c #4A3118",
"F+	c #5A4A31",
"G+	c #4A3920",
"r+v+z+r+z+z+G+v+r+v+v+z+z+z+v+G+r+v+z+r+z+z+G+v+r+v+v+z+z+z+v+G+G+q+y+o+o+l+s+F+D+z+G+o+y+y+y+G+r+q+q+q+F+l+s+F+s+D+p+C+G+F+s+D+",
"G+q+F+F+s+F+s+F+C+l+r+q+s+u+o+q+G+q+F+F+s+F+s+F+C+l+r+q+s+u+o+q+s+l+F+F+F+G+s+C+s+u+G+F+F+F+F+D+s+F+F+C+l+D+s+F+l+s+v+s+G+C+s+F+",
"r+C+C+F+F+C+s+q+F+C+s+C+q+s+l+F+r+C+C+F+F+C+s+q+F+C+s+C+q+s+l+F+G+s+q+F+F+G+G+s+G+F+G+D+C+q+C+r+D+F+l+s+F+s+r+r+s+D+r+G+s+s+r+r+",
"p+q+F+l+F+D+G+s+s+F+G+G+s+s+G+G+p+q+F+l+F+D+G+s+s+F+G+G+s+s+G+G+G+s+r+z+v+r+G+G+G+G+G+q+r+C+G+r+r+s+F+D+s+s+G+o+q+o+q+w+F+D+s+F+",
"s+r+G+G+G+s+G+s+D+r+D+s+s+s+s+s+s+r+G+G+G+s+G+s+D+r+D+s+s+s+s+s+s+y+C+o+s+o+q+C+F+q+r+r+B+r+D+G+r+D+z+r+z+z+D+D+D+D+D+D+D+D+D+D+",
"F+C+q+x+l+s+s+p+p+G+s+F+F+s+s+F+F+C+q+x+l+s+s+p+p+G+s+F+F+s+s+F+s+F+q+s+r+o+q+s+q+F+C+G+q+F+q+s+G+q+F+F+s+F+s+F+C+l+r+q+s+u+o+q+",
"q+s+s+l+s+s+v+o+o+o+s+F+l+F+s+D+q+s+s+l+s+s+q+o+o+o+s+F+l+F+s+D+G+F+s+q+G+F+q+F+s+s+G+G+s+l+m+C+r+C+C+F+F+C+s+q+F+C+s+C+q+s+l+F+",
"G+p+z+r+p+G+B+s+F+r+s+G+G+G+r+r+G+p+z+r+p+G+B+s+F+r+s+G+G+G+r+r+G+D+G+D+p+p+G+G+G+G+G+s+G+q+r+p+p+q+F+l+F+D+G+s+s+F+G+G+s+s+G+G+",
"G+q+y+o+o+l+s+F+D+z+G+y+o+u+y+G+G+q+y+o+o+l+s+F+D+z+G+y+o+u+y+G+D+q+r+D+y+y+C+r+C+q+G+r+G+G+F+r+s+r+G+G+G+s+G+s+D+r+D+s+s+s+s+s+",
"s+l+F+F+F+G+s+C+s+u+G+F+F+F+F+r+s+l+F+F+F+G+s+C+s+u+G+F+F+F+F+r+o+l+p+q+l+l+l+G+t+l+s+s+o+y+o+q+F+C+q+x+l+s+s+p+p+G+s+F+F+s+s+F+",
"G+s+q+F+F+G+G+s+G+F+G+D+C+q+C+p+G+s+q+F+F+G+G+s+G+F+G+D+C+q+C+p+C+F+G+o+F+F+q+G+x+q+s+s+s+q+F+C+q+s+s+l+s+s+q+o+o+o+s+F+l+F+s+D+",
"G+s+r+z+v+r+G+G+G+G+G+q+r+C+G+r+G+s+r+z+v+r+G+G+G+G+G+q+r+C+G+r+p+G+D+o+F+s+q+p+l+A+l+G+s+G+r+z+G+p+z+r+p+G+B+s+F+r+s+G+G+G+r+r+",
"s+y+C+o+s+o+q+C+F+q+r+r+B+r+v+G+s+y+C+o+s+o+q+C+F+q+r+r+B+r+v+G+D+C+F+B+F+s+D+G+y+l+t+r+y+F+F+G+G+q+y+o+o+l+s+F+D+z+G+y+o+u+y+G+",
"s+F+q+s+r+o+q+s+q+F+C+G+q+F+q+s+s+F+q+s+r+o+q+s+q+F+C+G+q+F+q+s+F+s+G+s+r+D+p+p+s+G+r+D+s+o+s+s+s+l+F+F+F+G+s+C+s+u+G+F+F+F+F+r+",
"G+F+s+q+G+F+q+F+s+s+G+G+s+l+m+C+G+F+s+q+G+F+q+F+s+s+G+G+s+l+m+C+D+F+G+u+C+C+s+o+q+o+G+C+s+q+F+F+G+s+q+F+F+G+G+s+G+F+G+D+C+q+C+p+",
"G+D+G+D+p+p+G+G+G+G+G+s+G+q+r+p+G+D+G+D+p+p+G+G+G+G+G+s+G+q+r+p+p+G+z+u+q+s+F+q+G+D+D+q+r+r+G+z+G+s+r+z+v+r+G+G+G+G+G+q+r+C+G+r+",
"r+v+z+r+z+z+G+v+r+v+v+z+z+z+v+G+D+q+r+D+y+y+C+r+C+q+G+r+G+G+F+r+r+q+q+y+F+l+s+F+s+D+p+C+G+F+s+D+s+y+C+o+s+o+q+C+F+q+r+r+B+r+v+G+",
"G+q+F+F+s+F+s+F+C+l+r+q+s+u+o+q+o+l+p+q+l+l+l+G+t+l+s+s+o+y+o+q+s+F+F+o+l+D+s+F+l+s+v+s+G+C+s+F+s+F+q+s+r+o+q+s+q+F+C+G+q+F+q+s+",
"r+C+C+F+F+C+s+q+F+C+s+C+q+s+l+F+C+F+G+o+F+F+q+G+x+q+s+s+s+q+F+C+D+F+l+s+F+s+r+r+s+D+r+G+s+s+r+r+G+F+s+q+G+F+q+F+s+s+G+G+s+l+m+C+",
"p+q+F+l+F+D+G+s+s+F+G+G+s+s+G+G+p+G+D+o+F+s+q+p+l+A+l+G+s+G+r+z+r+s+F+D+s+s+G+o+q+o+q+w+F+D+s+F+G+D+G+D+p+p+G+G+G+G+G+s+G+q+r+p+",
"s+r+G+G+G+s+G+s+D+r+D+s+s+s+s+s+D+C+F+B+F+s+D+G+y+l+t+r+y+F+F+G+D+p+G+s+s+G+p+o+q+F+s+l+t+s+F+s+D+q+r+D+y+y+C+r+C+q+G+r+G+G+F+r+",
"F+C+q+x+l+s+s+p+p+G+s+F+F+s+s+F+F+s+G+s+r+D+p+p+s+G+r+D+s+o+s+s+D+y+l+s+G+G+r+r+G+r+r+s+s+s+G+G+o+l+p+q+l+l+l+G+t+l+s+s+o+y+o+q+",
"q+s+s+l+s+s+v+o+o+o+s+F+l+F+s+D+D+F+G+C+C+C+s+o+q+o+G+C+s+q+F+F+G+F+F+C+s+s+q+q+D+D+F+s+D+s+D+s+C+F+G+o+F+F+q+G+x+q+s+s+s+q+F+C+",
"G+p+z+r+p+G+B+s+F+r+s+G+G+G+r+r+p+G+z+C+q+s+F+q+G+D+D+q+r+r+G+z+r+G+G+G+G+p+G+r+G+s+s+s+G+F+F+F+p+G+D+o+F+s+q+p+l+A+l+G+s+G+r+z+",
"G+q+y+o+o+l+s+F+D+z+G+y+o+u+y+G+r+q+q+q+F+l+s+F+s+D+p+C+G+F+s+D+D+q+r+D+y+y+C+r+C+q+G+r+G+G+F+r+D+C+F+B+F+s+D+G+y+l+t+r+y+F+F+G+",
"s+l+F+F+F+G+s+C+s+u+G+F+F+F+F+r+s+F+F+C+l+D+s+F+l+s+v+s+G+C+s+F+o+l+p+q+l+l+l+G+t+l+s+s+o+y+o+q+F+s+G+s+r+D+p+p+s+G+r+D+s+o+s+s+",
"G+s+q+F+F+G+G+s+G+F+G+D+C+q+C+p+D+F+l+s+F+s+r+r+s+D+r+G+s+s+r+r+C+F+G+o+F+F+q+G+x+q+q+s+s+q+F+C+D+F+G+u+C+C+s+o+q+o+G+C+s+q+F+F+",
"G+s+r+z+v+r+G+G+G+G+G+q+r+C+G+r+r+s+F+D+s+s+G+o+q+o+q+w+F+D+s+F+p+G+D+o+F+s+q+p+l+A+l+G+s+G+r+z+p+G+z+u+q+s+F+q+G+D+D+q+r+r+G+z+",
"s+y+C+o+s+o+q+C+F+q+r+r+B+r+v+G+r+v+z+r+z+z+G+v+r+v+v+z+z+z+v+G+D+C+F+B+F+s+D+G+y+l+t+r+y+F+F+G+r+q+q+y+F+l+s+F+s+D+p+C+G+F+s+D+",
"s+F+q+s+r+o+q+s+q+F+C+G+q+F+q+s+G+q+F+F+s+F+s+F+C+l+r+q+s+u+o+q+F+s+G+s+r+D+p+p+s+G+r+D+s+o+s+s+s+F+F+o+l+D+s+F+l+s+v+s+G+C+s+F+",
"G+F+s+q+G+F+q+F+s+s+G+G+s+l+m+C+r+C+C+F+F+C+s+q+F+C+s+C+q+s+l+F+D+F+G+C+C+C+s+o+q+o+G+C+s+q+F+F+D+F+l+s+F+s+r+r+s+D+r+G+s+s+r+r+",
"G+D+G+D+p+p+G+G+G+G+G+s+G+q+r+p+p+q+F+l+F+D+G+s+s+F+G+G+s+s+G+G+p+G+z+C+q+s+F+q+G+D+D+q+r+r+G+z+r+s+F+D+s+s+G+o+q+o+q+w+F+D+s+F+",
"D+l+r+D+y+y+C+r+C+q+G+r+G+G+F+r+s+r+G+G+G+s+G+s+D+r+D+s+s+s+s+s+r+q+q+q+F+l+s+F+s+D+p+C+G+F+s+D+D+p+G+s+s+G+p+o+q+F+s+l+t+s+F+s+",
"o+l+p+q+l+l+l+G+t+l+s+s+o+y+o+q+F+C+q+x+l+s+s+D+D+G+s+F+F+s+s+F+s+F+F+C+l+D+s+F+l+s+v+s+G+C+s+F+D+y+l+s+G+G+r+r+G+r+r+s+s+s+G+G+",
"C+F+G+o+F+F+q+G+l+l+s+s+s+q+F+C+q+s+s+l+s+s+D+o+o+o+s+F+l+F+s+D+D+F+l+s+F+s+r+r+s+D+r+G+s+s+r+r+G+F+F+C+s+s+q+q+D+D+F+s+D+s+D+s+",
"p+G+D+o+F+s+q+p+l+A+l+G+s+G+r+z+G+p+z+r+p+G+B+s+F+r+s+G+G+G+r+r+r+s+F+D+s+s+G+o+q+o+q+w+F+D+s+F+r+G+G+G+G+p+G+r+G+s+s+s+G+F+F+F+",
"D+C+F+B+F+s+D+G+y+l+t+r+y+F+F+G+G+q+y+o+o+l+s+F+D+z+G+y+o+u+y+G+D+p+G+s+s+G+p+o+q+F+s+l+t+s+F+s+D+p+G+s+s+G+q+o+q+F+s+l+t+s+F+s+",
"F+s+G+r+r+D+p+p+s+G+r+D+s+o+s+s+s+l+F+F+F+G+s+C+s+u+G+F+F+F+F+r+D+y+l+s+G+G+r+r+G+r+r+s+s+s+G+G+D+y+l+s+G+G+r+r+G+r+r+s+s+s+G+G+",
"D+F+G+C+C+C+s+o+q+o+G+C+s+q+F+F+G+s+q+F+F+G+G+s+G+F+G+D+C+q+C+p+G+F+F+C+s+s+q+q+D+D+F+s+D+s+D+s+G+F+F+C+s+s+q+q+D+D+F+s+D+s+D+s+",
"p+G+z+C+q+s+F+q+G+D+D+q+r+r+G+z+G+s+r+z+v+r+G+G+G+G+G+D+D+D+G+r+r+G+G+G+G+p+G+r+G+s+s+s+G+F+F+F+r+G+G+G+G+p+G+r+G+s+s+s+G+F+F+F+",
"r+q+q+q+F+l+s+F+s+D+p+C+G+F+s+D+s+y+C+o+s+o+q+C+F+q+r+r+B+r+v+G+r+q+q+y+F+l+s+F+s+D+p+y+G+F+s+D+s+y+C+o+s+o+q+C+F+q+r+r+B+r+v+G+",
"s+F+F+C+l+D+s+F+l+s+v+s+G+C+s+F+s+F+q+s+r+o+q+s+q+F+C+G+q+F+q+s+s+F+F+o+l+D+s+F+l+s+v+l+G+C+s+F+s+F+q+s+r+o+q+s+q+F+C+G+q+F+q+s+",
"D+F+l+s+F+s+r+r+s+D+r+p+s+s+r+r+G+F+s+q+G+F+q+F+s+s+G+G+s+l+m+C+D+F+l+s+F+s+r+r+s+D+r+G+s+s+r+r+G+F+s+q+G+F+q+F+s+s+G+G+s+l+m+C+",
"r+s+F+D+s+s+G+o+q+o+q+w+F+D+s+F+G+D+G+D+p+p+G+G+G+G+G+s+G+q+r+p+r+s+F+D+s+s+G+o+q+o+q+w+F+D+s+F+G+D+G+D+p+p+G+G+G+G+G+s+G+q+r+p+",
"D+p+G+s+s+G+p+o+q+F+s+l+t+s+F+s+D+l+r+D+y+y+C+r+C+q+G+r+G+G+F+r+D+p+G+s+s+G+p+o+q+F+s+l+t+s+F+s+D+l+r+D+y+y+C+r+C+q+G+r+G+G+F+r+",
"D+y+l+s+G+G+r+r+G+r+r+s+s+s+G+G+o+l+p+q+l+l+l+G+t+l+s+s+o+y+o+q+D+y+l+s+G+G+r+r+G+r+r+s+s+s+G+G+o+l+p+q+l+l+l+G+t+l+s+s+o+y+o+q+",
"G+F+F+C+s+s+q+q+D+D+F+s+D+s+D+s+C+F+G+o+F+F+q+G+x+A+s+s+s+q+F+C+G+F+F+C+s+s+q+q+D+D+F+s+D+s+D+s+C+F+G+o+F+F+q+G+x+l+s+s+s+q+F+C+",
"r+G+G+G+G+p+G+r+G+s+s+s+G+F+F+F+p+G+D+o+F+s+q+p+l+A+l+G+s+G+r+z+r+G+G+G+G+p+G+r+G+s+s+s+G+F+F+F+p+G+D+o+F+s+q+p+l+A+l+G+s+G+r+z+",
"D+l+r+D+y+y+C+r+C+q+G+r+G+G+F+r+D+C+F+B+F+s+D+G+y+l+t+r+y+F+F+G+D+r+r+D+y+y+C+r+C+q+G+r+G+G+F+r+D+C+F+B+F+s+D+G+y+l+t+r+y+F+F+G+",
"o+l+p+q+l+l+l+G+t+l+s+s+o+y+o+q+F+s+G+s+p+D+p+p+s+G+r+D+s+o+s+s+o+l+p+q+l+l+l+G+t+l+s+s+o+y+o+q+F+s+G+r+r+D+p+p+s+G+r+z+s+o+s+s+",
"C+F+G+o+F+F+q+G+x+l+s+s+s+q+F+C+D+F+G+u+G+C+s+o+q+o+G+C+s+q+F+F+C+F+G+o+F+F+q+G+x+l+s+s+s+q+F+C+D+F+G+C+C+C+s+o+q+o+G+C+s+q+F+F+",
"p+G+D+o+F+s+q+p+l+A+l+G+s+G+r+z+p+G+z+u+C+s+F+q+G+D+D+q+r+r+G+z+p+G+D+o+F+s+q+p+l+A+l+G+s+G+r+z+p+G+z+C+q+s+F+q+G+D+D+q+r+r+G+z+",
"D+C+F+B+F+s+D+G+y+l+t+r+y+F+F+G+r+q+q+q+F+l+s+F+s+D+p+C+G+F+s+D+D+C+F+B+F+s+D+G+y+l+t+r+y+F+F+G+r+q+q+q+F+l+s+F+s+D+p+C+G+F+s+D+",
"F+s+G+r+r+D+p+p+s+G+r+D+s+o+s+s+s+F+F+C+l+D+s+F+l+s+v+s+G+C+s+F+F+s+G+r+r+D+p+p+s+G+r+D+s+o+s+s+s+F+F+o+l+D+s+F+l+s+v+s+G+C+s+F+",
"D+F+G+C+C+C+s+o+q+o+G+C+s+q+F+F+D+F+l+s+F+s+r+r+s+D+r+G+s+s+r+r+D+F+G+C+C+C+s+o+q+o+G+C+s+q+F+F+D+F+l+s+F+s+r+r+s+D+r+p+s+s+r+r+",
"p+G+z+C+q+s+F+q+G+D+D+q+r+r+G+z+r+s+F+D+s+s+G+o+q+o+q+w+F+D+s+F+p+G+z+C+q+s+F+q+G+D+D+q+r+r+G+z+r+s+F+D+s+s+G+o+q+o+q+w+F+D+s+F+",
"r+q+q+q+F+l+s+F+s+D+p+C+G+F+s+D+D+p+G+s+s+G+p+o+q+F+s+l+t+s+F+s+r+q+q+q+F+l+s+F+s+D+p+C+G+F+s+D+D+p+G+s+s+G+p+o+q+F+s+l+t+s+F+s+",
"s+F+F+o+l+D+s+F+l+s+v+s+G+C+s+F+D+y+l+s+G+G+r+r+G+r+r+s+s+s+G+G+s+F+F+o+l+D+s+F+l+s+v+s+G+C+s+F+D+y+l+s+G+G+r+r+G+r+r+s+s+s+G+G+",
"D+F+l+s+F+s+r+r+s+D+r+G+s+s+r+r+G+F+F+C+s+s+q+q+D+D+F+s+D+s+D+s+D+F+l+s+F+s+r+r+s+D+r+G+s+s+r+r+G+F+F+C+s+s+q+q+D+D+F+s+D+s+D+s+",
"r+s+F+D+s+s+G+o+q+o+q+w+F+D+s+F+r+G+G+G+G+p+G+r+G+s+s+s+G+F+F+F+r+s+F+D+s+s+G+o+q+o+q+w+F+D+s+F+r+G+G+G+G+p+G+r+G+s+s+s+G+F+F+F+",
"D+p+G+s+s+G+p+o+q+F+s+l+t+s+F+s+D+p+G+s+s+G+p+o+q+F+s+l+t+s+F+s+D+p+G+s+s+G+p+o+q+F+s+l+t+s+F+s+D+p+G+s+s+G+p+o+q+F+s+l+t+s+F+s+",
"D+y+l+s+G+G+r+r+G+r+r+s+s+s+G+G+D+y+l+s+G+G+r+r+G+r+r+s+s+s+G+G+D+y+l+s+G+G+r+r+G+r+r+s+s+s+G+G+D+y+l+s+G+G+r+r+G+r+r+s+s+s+G+G+",
"G+F+F+C+s+s+q+q+D+D+F+s+D+s+D+s+G+F+F+C+s+s+q+q+D+D+F+s+D+s+D+s+G+F+F+C+s+s+q+q+D+D+F+s+D+s+D+s+G+F+F+C+s+s+q+q+D+D+F+s+D+s+D+s+",
"r+G+G+G+G+p+G+r+G+s+s+s+G+F+F+F+r+G+G+G+G+p+G+r+G+s+s+s+G+F+F+F+r+G+G+G+G+p+G+r+G+s+s+s+G+F+F+F+r+G+G+G+G+p+G+r+G+s+s+s+G+F+F+F+"};
